/* XPM */
static char *_4ad53f62cfc41c0bc1a7df5a0eede05[] = {
/* columns rows colors chars-per-pixel */
"64 64 172 2 ",
"   c #0A0D11",
".  c #0D1214",
"X  c #10161A",
"o  c #121A1D",
"O  c #121E23",
"+  c #1C2426",
"@  c #1F3124",
"#  c #222D29",
"$  c #223226",
"%  c #223A25",
"&  c #22332A",
"*  c #243B2C",
"=  c #222C30",
"-  c #2A3635",
";  c #243932",
":  c #2A3D33",
">  c #2B353A",
",  c #2C3D3A",
"<  c #333C3F",
"1  c #26442C",
"2  c #2B4A2E",
"3  c #2C4F34",
"4  c #2C433B",
"5  c #2B4A3B",
"6  c #354E3D",
"7  c #2F5434",
"8  c #315436",
"9  c #33583A",
"0  c #3B683D",
"q  c #3F733C",
"w  c #2E3D42",
"e  c #323D42",
"r  c #2F4542",
"t  c #344046",
"y  c #344B45",
"u  c #36464A",
"i  c #38484A",
"p  c #335140",
"a  c #3B5442",
"s  c #3C5D41",
"d  c #324D52",
"f  c #3E4A51",
"g  c #315250",
"h  c #3D6646",
"j  c #3E6B44",
"k  c #3F7344",
"l  c #434E55",
"z  c #4A4F53",
"x  c #424F58",
"c  c #445157",
"v  c #46555C",
"b  c #48575E",
"n  c #44595C",
"m  c #49595F",
"M  c #505254",
"N  c #426B45",
"B  c #496E4A",
"V  c #427344",
"C  c #407941",
"Z  c #44744A",
"A  c #43625A",
"S  c #485760",
"D  c #475860",
"F  c #4A5B62",
"G  c #476263",
"H  c #4D6166",
"J  c #4E6369",
"K  c #506067",
"L  c #51646B",
"P  c #53696E",
"I  c #4F766B",
"U  c #527B6C",
"Y  c #4E6F70",
"T  c #556B72",
"R  c #586B71",
"E  c #547174",
"W  c #5A7477",
"Q  c #587B75",
"!  c #5B767A",
"~  c #5D797E",
"^  c #6A6E6C",
"/  c #647373",
"(  c #627A7D",
")  c #7D7F77",
"_  c #817569",
"`  c #887769",
"'  c #8B786B",
"]  c #4E864E",
"[  c #4D8E4B",
"{  c #4E944B",
"}  c #51934E",
"|  c #539C4E",
" . c #518D52",
".. c #539452",
"X. c #569E53",
"o. c #54A24F",
"O. c #5AA857",
"+. c #5CAF56",
"@. c #56A758",
"#. c #56B454",
"$. c #5BB757",
"%. c #5FB45E",
"&. c #5FB959",
"*. c #64AD5D",
"=. c #60B657",
"-. c #60BA55",
";. c #61B45B",
":. c #65BC5E",
">. c #568278",
",. c #5B827B",
"<. c #7E8076",
"1. c #79847F",
"2. c #60917B",
"3. c #5FBD64",
"4. c #64AF60",
"5. c #63BC61",
"6. c #6ABC65",
"7. c #6CB969",
"8. c #64C05E",
"9. c #6AC464",
"0. c #6EC369",
"q. c #71C46C",
"w. c #818277",
"e. c #88877B",
"r. c #8B877A",
"t. c #8B897C",
"y. c #968675",
"u. c #998775",
"i. c #9B8976",
"p. c #918779",
"a. c #948879",
"s. c #9A8A78",
"d. c #5F7D82",
"f. c #627F85",
"g. c #647F86",
"h. c #4A8083",
"j. c #5C8383",
"k. c #56878A",
"l. c #628085",
"z. c #638086",
"x. c #638286",
"c. c #648187",
"v. c #648287",
"b. c #6B8586",
"n. c #638288",
"m. c #65838A",
"M. c #67838B",
"N. c #638589",
"B. c #638689",
"V. c #658689",
"C. c #65848A",
"Z. c #66848C",
"A. c #67878C",
"S. c #68858B",
"D. c #68868B",
"F. c #66898C",
"G. c #67898E",
"H. c #698A8E",
"J. c #738584",
"K. c #788683",
"L. c #7A8783",
"P. c #678B90",
"I. c #698B90",
"U. c #6A8D91",
"Y. c #649393",
"T. c #6B9295",
"R. c #6D9699",
"E. c #6E999C",
"W. c #719B9E",
"Q. c #6F9DA0",
"!. c #719EA1",
"~. c #72A1A3",
/* pixels */
"m.m.m.m.m.m.C.m.C.C.C.C.C.C.C.Z.m.S m m.S.C.Z.C.C.C.Z.C.C.S.C.C.C.C.C.C.C.C.C.C.C.C.C.C.C.C.C.C.C.C.L l d.I.C.C.C.C.C.C.S.m.C.m.",
"m.m.m.C.m.m.m.C.C.m.C.C.C.m.C.C.c.m m c.S.S.C.C.C.m.C.C.C.C.S.S.C.m.C.C.C.C.C.C.m.m.C.C.C.m.C.C.C.C.L l d.I.C.C.C.C.C.C.C.m.C.C.",
"m.m.m.m.m.m.m.m.C.m.m.C.C.C.C.C.z.m m c.S.S.C.C.C.C.C.C.C.C.S.C.C.C.C.C.C.C.C.C.C.C.C.C.C.C.C.C.C.C.L l f.I.C.C.C.C.C.m.C.C.m.S.",
"m.m.m.m.m.m.m.m.m.C.C.m.C.C.C.C.z.m b c.m.C.C.m.m.m.m.m.m.m.m.m.m.m.m.m.m.m.C.m.C.m.C.m.C.C.C.C.C.C.L l f.P.Z.C.C.C.C.m.m.m.m.m.",
"m.m.C.m.m.C.C.C.C.C.C.C.C.C.C.C.z.m b g.m.m.m.m.C.C.m.C.C.C.C.C.C.C.C.C.C.C.C.C.C.C.C.C.C.C.C.C.C.C.L x g.U.Z.C.C.Z.C.m.m.m.m.m.",
"g.g.g.g.g.g.g.g.g.g.g.g.g.g.g.g.d.v c ~ f.f.g.g.g.g.g.g.g.g.c.g.g.g.g.z.g.g.g.g.g.g.g.z.g.z.z.z.c.m.L x d.G.C.m.m.m.m.z.z.g.c.m.",
"b b b b b b b b b b b b b b b b v f f c b b b b b b b b b b b b b b b b b b b b b b b b b b b b m S v x S F F S S S S S S S S S ",
"m S S S S b m m S S S S S m D b b f f v b b b b b b S S S m m m b b b b b b b b b b b b b b b b b b v x b S S S S S b b b b b b ",
"z.c.c.c.c.c.c.c.c.c.c.c.c.z.C.C.g.b v d.g.g.g.z.z.c.c.c.c.c.c.c.z.z.z.z.z.z.z.z.z.z.z.z.z.z.z.z.z.c.L x ! m.c.c.c.c.c.z.g.g.g.g.",
"C.C.C.C.C.C.C.C.C.C.C.C.C.C.G.G.C.b b g.m.m.C.C.C.S.C.C.C.S.C.C.C.C.C.C.C.C.C.C.C.C.C.C.C.C.C.C.C.C.P x ~ Z.C.S.S.S.C.C.C.C.C.C.",
"C.C.C.C.C.C.S.C.C.C.C.C.C.Z.G.G.C.b b n.C.m.C.C.C.C.C.C.C.C.C.C.C.C.C.C.C.C.C.C.C.C.C.C.C.C.C.C.C.C.P x ! Z.C.C.C.S.C.C.C.m.C.C.",
"C.C.C.C.C.C.C.C.C.C.C.m.C.C.Z.G.n.D S I.G.m.C.m.C.C.C.C.C.C.C.m.C.C.C.m.C.C.C.m.C.C.C.C.c.c.C.C.C.C.L l ! C.C.C.C.C.C.C.C.C.C.m.",
"C.C.C.C.C.C.C.C.C.C.C.C.C.C.C.C.z.b S P.G.m.C.C.C.C.m.C.C.C.C.C.C.C.C.C.C.C.C.C.C.C.C.C.c.c.C.C.C.C.L l ! C.C.C.C.C.C.C.C.m.m.m.",
"C.C.C.C.C.C.C.C.C.C.C.C.C.C.C.C.z.b m C.Z.C.C.C.C.m.C.C.C.m.C.C.C.m.C.C.C.C.C.C.C.C.C.C.C.C.C.C.C.C.L l ! C.C.C.C.C.C.C.C.C.m.m.",
"C.C.C.C.C.C.C.C.C.C.C.C.C.Z.C.C.z.S m n.Z.Z.C.C.C.C.C.C.C.C.C.C.C.C.C.C.C.C.C.C.C.C.C.C.C.C.C.C.C.C.L l W C.C.C.C.S.L.L.L.L.L.L.",
"C.C.C.C.C.C.C.S.C.C.C.m.C.C.C.C.z.S S m.Z.C.C.m.C.C.C.m.C.C.C.m.C.C.C.C.C.c.C.C.C.C.C.C.C.N.C.C.C.C.L f W C.C.C.C.b.p.s.s.s.s.p.",
"C.C.C.C.Z.C.C.C.C.C.C.C.C.C.C.C.n.S S m.Z.C.C.C.C.C.C.C.C.C.C.m.C.C.C.C.C.N.C.C.C.C.C.C.C.C.C.C.C.C.L f W C.C.C.J.L.a.s.s.s.s.p.",
"Z.C.C.C.C.C.Z.C.C.C.C.C.C.C.C.Z.m.S S m.C.C.C.C.C.m.C.C.C.m.C.C.C.C.C.N.C.C.C.N.N.C.C.N.N.C.C.N.C.C.L f W c.C.b.p.y.u.u.s.s.s.a.",
"C.C.C.C.C.C.C.C.C.C.C.C.C.Z.C.Z.C.F F m.C.C.C.C.m.m.C.C.C.C.C.C.C.C.C.C.C.C.C.N.N.N.N.N.N.N.c.C.C.C.L f W c.C.b.p.u.u.u.s.s.s.s.",
"C.C.C.C.C.C.C.C.C.C.C.C.C.C.Z.Z.m.F F m.S.C.C.m.m.m.m.m.C.C.C.C.C.C.C.C.C.N.N.N.N.N.N.C.N.N.C.C.C.C.L f W c.C.b.p.u.u.u.u.u.s.s.",
"C.C.C.C.C.C.C.C.C.C.C.Z.C.C.C.C.m.F S C.S.C.C.m.m.m.m.m.C.m.m.m.C.C.C.C.C.N.N.N.N.N.N.N.N.N.N.C.C.C.L f W C.C.S.p.u.u.u.u.u.u.s.",
"C.C.C.C.C.C.C.C.C.C.C.C.C.C.C.C.m.F F m.S.C.m.m.m.m.m.C.C.c.c.z.z.z.N.C.N.N.N.N.N.N.N.N.N.C.N.N.C.c.J f W C.C.S.e.e.u.u.u.u.u.e.",
"C.C.C.C.C.C.C.C.C.C.C.C.C.C.C.C.m.S S m.S.S.C.m.z.z.c.P < > > > > > e E C.N.N.N.N.N.N.N.N.C.N.N.N.C.H f W C.C.C.S.J.y.u.s.s.y.L.",
"C.C.C.C.C.C.C.C.C.C.C.S.C.C.C.Z.m.S S m.C.C.C.m.c.f.z.n $ % % % % % @ n ! N.c.z.N.N.N.n.N.N.N.C.C.C.J f W C.C.C.C.b.e.e.e.e.e.J.",
"C.C.C.C.C.C.C.C.C.C.C.C.C.C.C.Z.m.S S m.C.C.c.c.c.Q - ; ..;.;.;.;.=.} # > z.C.N.N.z.z.z.N.N.N.N.C.C.J f W C.N.C.C.c.N.N.C.c.C.N.",
"C.C.C.Z.C.C.C.C.C.C.C.C.C.C.C.C.m.S F C.C.C.C.c.P A + C +.| { { { o.X.j 4 n P N.N.N.z.z.N.n.z.N.N.C.J f W b.J.J.b.C.N.N.c.c.C.N.",
"C.C.C.Z.Z.Z.C.C.C.C.C.C.C.C.C.S.m.F F C.C.C.C.z.- 1 { #.@.& o o o & [ %.@.1 i C.N.z.z.z.N.N.N.z.N.N.J l / 1.p.y.e.1.b.N.z.C.C.C.",
"C.C.C.m.C.C.C.C.C.C.C.m.C.C.C.Z.c.S F C.C.C.C.z.> 7 $.#.V = 4 r y , j %.5.2 u C.z.z.z.z.z.z.N.N.N.N.L z _ y.y.u.u.y.e.c.c.C.C.m.",
"C.C.C.C.C.C.C.C.C.C.C.C.C.C.C.C.z.m m c.C.C.C.c.> 8 &.o.- w >.,.2.A h 9.5.1 t z.z.z.z.z.z.z.z.z.z.z.L M ` i.s.u.u.u.e.b.C.N.C.C.",
"C.m.C.C.C.m.C.C.C.C.C.C.C.C.C.C.z.m m z.m.m.C.N., 9 ;.+.6 y U I U i h 5.3.1 t z.z.z.z.z.z.z.z.z.z.z.L M ` i.s.s.u.u.e.b.C.N.N.N.",
"C.C.m.C.C.m.m.C.C.C.C.C.C.C.C.C.z.m m z.m.C.C.C.e 9 &.-.j , , 4 : s @.5.3.1 i z.z.z.z.z.z.z.z.z.z.z.L M ' i.i.i.u.s.t.b.C.C.n.z.",
"C.C.m.m.m.C.m.m.C.C.C.m.C.C.C.C.g.v v f.m.N.C.G.G p 8 [ ;.X.[ } { $.:.Z 6 : n c.z.z.z.z.z.z.z.z.z.z.L M ` i.s.s.s.s.e.S.C.C.m.m.",
"C.C.Z.C.C.C.C.C.C.C.C.C.C.C.C.C.f.v v z.C.C.G.G.G.A + 0 :.5.6.6.9.8.} 6 y Q z.C.z.z.z.z.z.z.z.z.z.z.L z _ i.s.s.s.p.J.C.C.C.C.C.",
"~ ~ ~ ~ ~ ~ ~ ~ ~ ~ ~ ~ ~ ! ! ! W c v W ! ! ! ~ ~ E n 5 3 0 6.6.] ] s < J ~ ~ ~ ! ! W W W W ! ! ! ! F x ^ ) <.w.w.) ( ~ ~ ~ ~ ~ ",
"v v v v v v v v v v v v c l l l f f l c c l x c c c c w O * 6.6.a , , c v v c c l l l l l l l l c l l c v m v v v v c c c c c c ",
"L L L L L L L L L L P P L L L L H l c L L L L L L T P P f & 6.6.a , , H L L L L L H H H H H H L L L m c F L L L L L L J J J J H ",
"C.C.m.m.C.C.C.C.C.C.C.C.C.C.C.c.f.v v f.c.c.C.C.C.C.C.G.G & 6.0.O.j , ,.z.c.m.m.c.c.z.z.C.z.C.C.C.C.P c ! C.C.C.C.C.C.C.C.C.C.C.",
"m.m.m.m.m.m.c.C.C.m.C.C.C.C.C.c.f.v v f.z.c.m.C.m.m.C.C.n & 6.q.0.V - ,.z.z.c.C.C.C.C.C.C.C.C.C.C.C.P c ! C.C.C.C.C.C.C.C.G.C.C.",
"m.m.m.m.m.m.m.c.C.m.C.C.C.C.C.m.g.b v ~ c.c.m.C.C.C.C.C.c & 6.q.q.N > ~ z.c.c.C.C.C.C.C.C.C.C.C.C.C.P x ! C.C.C.C.C.C.C.C.C.C.C.",
"C.C.m.m.Z.P.P.C.m.m.C.m.C.C.C.C.g.b v d.c.c.m.m.m.C.m.C.c & 6.0.N : , ~ c.c.c.C.C.C.C.C.C.C.C.C.C.C.P l ! C.C.C.C.C.C.C.C.C.C.C.",
"m.m.m.m.Z.R.R.C.C.C.C.C.C.C.C.C.z.m b z.C.C.m.n.n.n.m.C.c $ 6.0.B : , j.z.z.m.C.N.C.N.C.C.C.C.C.C.C.P l ! C.C.C.C.C.C.C.C.C.C.C.",
"m.m.m.C.Z.R.R.Z.C.C.C.C.C.C.C.C.n.S b z.C.C.m.z.n.n.m.C.c & 7.q.4. .5 g ~ N.z.N.C.C.C.z.C.C.C.C.C.C.P l ! C.C.C.C.C.C.C.C.C.C.C.",
"C.C.C.C.C.C.C.C.C.C.C.C.C.Z.Z.Z.C.F S z.C.C.m.n.n.n.m.m.c $ 7.q.*.*.7 O h.Y.z.C.C.C.C.C.C.C.C.C.C.C.P l ! C.C.C.C.C.C.C.C.C.C.C.",
"C.C.C.C.C.C.C.C.C.C.C.C.C.Z.Z.G.S.F S c.C.C.n.n.n.n.n.C.n $ 7.5.q 7 ; d k.Y.C.C.C.C.C.C.C.C.C.C.C.C.P l ! C.C.C.C.C.C.C.C.C.C.C.",
"C.C.C.C.C.C.C.C.C.C.S.S.G.G.P.P.G.F S c.C.m.n.n.n.n.n.n.P y Z k 1 o w j.Y.Y.N.C.C.C.C.C.C.C.C.C.C.C.P l ! C.C.C.C.C.C.C.C.C.C.C.",
"C.m.C.C.C.S.C.C.C.C.S.Z.G.G.T.R.T.F S z.C.m.n.N.m.n.n.z.z.Y X   . u E G.Y.G.N.N.C.C.C.C.C.C.C.C.C.C.P l ! C.C.C.C.C.C.C.C.C.C.C.",
"C.C.C.C.C.C.C.C.C.C.Z.G.G.U.T.R.T.F b z.C.m.m.m.m.m.m.d.W P t e e H ~ f.d.z.z.C.C.C.C.C.C.C.C.C.C.C.P l ! C.C.C.C.C.C.C.C.C.C.C.",
"C.C.C.m.C.C.C.C.C.C.G.W.W.W.T.T.T.F b z.C.C.C.C.C.m.C.~ L L L L L L K L P d.z.C.C.N.C.C.C.C.C.C.C.C.P x ~ C.C.C.C.C.C.C.C.C.C.C.",
"C.C.C.C.C.C.C.C.C.C.P.!.!.!.W.R.T.H b c.S.C.C.C.C.C.C.~ L L L L L L K K R g.C.C.C.C.C.C.C.C.C.C.C.C.P l ~ C.C.C.C.C.C.C.C.C.C.C.",
"C.m.C.C.C.S.C.C.C.G.P.W.!.!.W.T.P.F b c.Z.C.C.C.C.C.C.~ L L L L L L K L R g.C.N.N.C.C.C.C.C.C.C.C.C.P l ! C.C.C.C.C.C.C.C.C.C.C.",
"C.C.C.C.C.C.C.Z.P.E.E.!.!.!.!.R.G.F S S.G.C.C.C.C.C.C.d.T L L L L L L L ( C.C.N.N.C.C.C.C.C.C.C.C.C.P l ! C.C.C.C.C.C.C.C.C.C.C.",
"C.C.C.C.C.C.C.U.E.!.!.!.!.!.!.R.G.S S G.G.C.C.C.C.C.C.N.d.T L L L L L T z.C.N.C.C.N.C.C.C.C.C.C.C.C.T c ! C.C.C.C.C.C.C.C.C.C.C.",
"C.C.C.C.C.C.C.U.W.!.!.!.!.~.!.E.T.H S P.U.Z.Z.S.C.C.C.N.N.! T T T T W z.c.z.N.N.N.N.C.C.C.C.C.C.C.C.P l ! C.C.C.C.C.C.C.C.C.C.C.",
"C.C.C.C.C.C.G.T.W.!.!.!.!.~.~.~.W.J F P.P.G.G.S.C.C.C.C.C.z.z.z.z.z.z.z.z.N.N.N.N.C.C.N.C.C.C.C.C.C.P l ! C.C.C.C.C.C.N.C.C.C.C.",
"C.C.S.S.S.G.R.E.W.!.!.~.!.~.~.~.!.J F P.P.G.G.S.C.C.C.C.C.c.N.N.z.C.C.z.N.N.N.N.N.N.N.N.C.C.C.C.C.C.P x ! C.C.C.C.C.C.C.C.C.C.C.",
"C.C.S.C.G.T.R.R.T.E.!.!.~.~.~.~.!.H S P.P.G.Z.C.C.C.C.C.C.C.N.z.z.N.N.N.N.N.N.N.N.N.N.C.C.C.C.C.C.C.P x ! C.C.C.C.N.C.C.C.N.C.C.",
"C.C.S.S.G.U.I.G.G.R.!.!.~.~.~.~.W.H S T.T.G.Z.C.C.C.C.C.c.c.c.z.z.z.N.N.N.z.z.N.N.N.N.C.C.C.C.C.C.C.P x ! C.C.C.C.C.C.C.C.N.N.C.",
"Z.G.G.G.G.S.S.G.Z.P.T.W.~.~.~.~.Q.H m P.T.G.G.C.C.C.C.C.c.c.c.N.N.z.z.N.N.N.z.N.N.C.N.N.C.C.C.C.C.C.P l ! C.C.C.C.C.C.N.C.C.N.N.",
"T.W.R.P.H.G.G.G.G.G.T.W.W.~.~.~.!.F b T.E.G.C.C.C.C.C.C.C.C.C.C.N.N.N.N.N.N.N.N.N.C.C.C.C.C.C.C.C.C.P x ! C.C.C.C.C.N.N.N.N.N.N.",
"W.W.T.P.H.G.G.G.G.H.T.W.E.!.~.~.E.F v T.W.T.T.T.G.C.C.C.C.C.C.C.N.N.N.z.N.N.N.N.N.N.C.C.C.C.C.C.C.N.P x ! C.C.C.C.C.N.C.N.N.N.C.",
"W.T.G.G.G.G.G.G.T.R.R.W.W.~.~.~.~.H b T.!.!.Q.W.T.G.C.C.C.C.C.C.C.N.N.C.z.N.C.C.C.C.C.N.N.N.C.C.C.C.P l ! C.C.C.C.C.C.C.N.N.C.C.",
"G.C.c.c.C.C.c.c.H.T.T.T.R.R.R.E.R.F v G.T.T.T.T.P.c.z.z.z.z.z.z.z.z.z.z.z.z.z.z.z.z.z.z.d.d.d.d.d.d.L x ! C.z.z.z.z.z.z.z.z.z.z.",
"S S S S F F F F F F H H H F F F F f f v b b b m m m m m m m m m m b b b b b b b m m m m b b b b b b l l b S S S S S m m m S m S ",
"S S S S F F F F F H H H H H F F S f f m S S S S S m m b b b b m b b b b v v v v b b b b v v v v v v l l c v v v v v v v v v v v "
};
