/* XPM */
static char *ddcb7334bcb64b3ebd890e147a90600a[] = {
/* columns rows colors chars-per-pixel */
"64 64 225 2 ",
"   c #0D0D1C",
".  c #090614",
"X  c #110E1C",
"o  c #0F101D",
"O  c #13101F",
"+  c #0E0F21",
"@  c #100D21",
"#  c #0E1927",
"$  c #131424",
"%  c #191625",
"&  c #151927",
"*  c #191925",
"=  c #141729",
"-  c #191729",
";  c #151A2A",
":  c #1B1C2C",
">  c #151D32",
",  c #1C1E31",
"<  c #211D2C",
"1  c #211E33",
"2  c #1C212D",
"3  c #162232",
"4  c #1D2333",
"5  c #1E2539",
"6  c #1D2D3A",
"7  c #192936",
"8  c #1F333F",
"9  c #22252F",
"0  c #222533",
"q  c #242935",
"w  c #2A2934",
"e  c #25273A",
"r  c #252B3B",
"t  c #2A2E3C",
"y  c #25323E",
"u  c #2A323E",
"i  c #31333E",
"p  c #312D3B",
"a  c #1A3746",
"s  c #19334B",
"d  c #262E42",
"f  c #2A2F41",
"g  c #243342",
"h  c #2C3443",
"j  c #2D3946",
"k  c #2E3549",
"l  c #2D3C4B",
"z  c #243849",
"x  c #313543",
"c  c #323B46",
"v  c #343D4B",
"b  c #383E4B",
"n  c #333648",
"m  c #2B3B52",
"M  c #343F52",
"N  c #1D5459",
"B  c #1C4851",
"V  c #2C434E",
"C  c #35414D",
"Z  c #3A424E",
"A  c #284856",
"S  c #354352",
"D  c #3A4553",
"F  c #374955",
"G  c #3C4A55",
"H  c #364559",
"J  c #3A4658",
"K  c #334C5C",
"L  c #3D4A59",
"P  c #3E525C",
"I  c #3C5159",
"U  c #2E515C",
"Y  c #175466",
"T  c #295A6B",
"R  c #3D5361",
"E  c #355665",
"W  c #18696E",
"Q  c #1B6C75",
"!  c #256A75",
"~  c #366B7B",
"^  c #34616E",
"/  c #414C55",
"(  c #424E5B",
")  c #424351",
"_  c #425057",
"`  c #43525C",
"'  c #49555C",
"]  c #44595F",
"[  c #4A585E",
"{  c #505256",
"}  c #6B655B",
"|  c #444F63",
" . c #445562",
".. c #495664",
"X. c #455A64",
"o. c #4A5B65",
"O. c #455D6B",
"+. c #4B5D6A",
"@. c #465769",
"#. c #525E6A",
"$. c #535E65",
"%. c #46626C",
"&. c #4C636C",
"*. c #4C6167",
"=. c #52646C",
"-. c #546A6F",
";. c #576367",
":. c #4E6571",
">. c #4E6972",
",. c #4D6C7A",
"<. c #446979",
"1. c #526572",
"2. c #546C74",
"3. c #5A6E75",
"4. c #556E79",
"5. c #5A6E79",
"6. c #56677A",
"7. c #557176",
"8. c #5A7276",
"9. c #567379",
"0. c #59757A",
"q. c #5B797E",
"w. c #56787F",
"e. c #726463",
"r. c #736964",
"t. c #62757D",
"y. c #62797F",
"u. c #647573",
"i. c #72726D",
"p. c #917458",
"a. c #847866",
"s. c #8A7265",
"d. c #72807B",
"f. c #78857E",
"g. c #9E8254",
"h. c #9C896D",
"j. c #948775",
"k. c #8D8A63",
"l. c #B2946C",
"z. c #A18E71",
"x. c #A79069",
"c. c #BAA677",
"v. c #BBA56F",
"b. c #E2BB69",
"n. c #D2AB72",
"m. c #E7C373",
"M. c #3C7B8A",
"N. c #556E80",
"B. c #487583",
"V. c #567581",
"C. c #5B7582",
"Z. c #5D7C82",
"A. c #597B86",
"S. c #426B84",
"D. c #647E85",
"F. c #687E86",
"G. c #667F88",
"H. c #158996",
"J. c #0C8096",
"K. c #3E8B92",
"L. c #1399A3",
"P. c #338CA3",
"I. c #1CB6B4",
"U. c #2AACB7",
"Y. c #5E8186",
"T. c #5E8289",
"R. c #568088",
"E. c #5E8897",
"W. c #5C909E",
"Q. c #668087",
"!. c #658186",
"~. c #648086",
"^. c #668188",
"/. c #61858A",
"(. c #62868C",
"). c #64878D",
"_. c #64838A",
"`. c #69838A",
"'. c #65898E",
"]. c #65898D",
"[. c #6B898D",
"{. c #6D8386",
"}. c #72898E",
"|. c #738484",
" X c #678790",
".X c #668A90",
"XX c #668B91",
"oX c #6A8C93",
"OX c #698D98",
"+X c #768C92",
"@X c #6B9096",
"#X c #6D9299",
"$X c #69979D",
"%X c #749296",
"&X c #7A9595",
"*X c #73949C",
"=X c #79989D",
"-X c #5390A7",
";X c #759BA2",
":X c #7799A3",
">X c #6397A2",
",X c #44B5BF",
"<X c #7EA3AB",
"1X c #75A0AB",
"2X c #77A7B4",
"3X c #79B5BD",
"4X c #6BA7B2",
"5X c #7BB9C1",
"6X c #7CB6C2",
"7X c #61B9C1",
"8X c #819799",
"9X c #86998E",
"0X c #8AA099",
"qX c #96A196",
"wX c #9BA28E",
"eX c #B5B197",
"rX c #829DA1",
"tX c #81A4AB",
"yX c #87A7AC",
"uX c #87B4B9",
"iX c #93B4B2",
"pX c #89ADB3",
"aX c #C1B38B",
"sX c #86BAC3",
"dX c #89C2CA",
/* pixels */
"2.2.7.9.q.XX(.q.q.Z.Z.Y.'.'.'.@X*X0.' /.(./.Z.0.0.C.Z.Z.Z.Z.Z.q.q.Z.q.q.q.q.q.q.q.~.o.` ~.(.~.~._.Q.Q.~.Q.Q.~.~.~.~.~.~.G._.(.(.",
"2.q.).(.).XX/.7.7.7.7.Z.).)..X@X#X9.` T.(./.Z.2.2.9.Z.Z.Z.q.Z.Z.Z.q.w.9.9.9.0.9.q._.*.` ~.~.~.~.~.~._.~.Q.~.~.G.~.~.~.~.~.~.~.~.",
"2.Z.oX.X'.Z.q.9.9.9.7.Z.'..X.XoX#X9.` Y.(.T.C.5.2.9.Z.Z.Z.Z.Z.Z.Z.q.9.9.9.0.9.~.~._.&.` G.`.~.~.~.Q.F.G.G.G.G.G.G.~.~.~._._.~.~.",
"7.Z.oX'./.9.9.0.0.0.0.q.'..X'.oX#X9.` Y.(.T.0.2.2.9.Y.Z.Z.Z.Z.Z.w.0.9.9.0.9.9.%Xq.].&.` G._.G.G.G.~.F.G.~.G.G.G.G.G.~.~.~.~._._.",
"7.Z.oX'./.9.0.0.9.q.(.(.'.)..XoX#X2.( A.T.Z.Z.2.2.0.Z.~.q.Z.A.0.7.>.2.9.2.7.0.8.o.[.*.` G._.G.G.G.G.G.G.G.G.G.G.~.~.~.~.~.~._._.",
"7.Z.'.~.Z.0.0.0.0.Z.'.'.(.'..XoX@X2./ 2.2.4.9.2.2.2.Z.(..XZ.2.R.$X$XXX&.Z.7.0.=./ [.&./ D._.G.~.G.G.G.G.G.G.G.~.F.G.~.G.Q.F.`._.",
"9.0.0.0.7.0.0.0.0.Y.XX'.)..X.XoX@X2.G 2.2.2.2.2.2.2.9.X.W.V.] 4X3X4XW.V ;X~.-.-.D [.=._ D.~.G.G.G.G.G.G.G.G.G.~.G.G.G.G.G.Q.F._.",
"9.0.0.0.0.0.0.0.0.0.Z.(.'..X.XXX@X>.G 2.2.2.2.2.4.0.%.k ,.P j R P K S h H ( ` ` j [.-._ D.~.G.~.G.G.G.G.G.G.G.G.G.G.G.G.G.Q.G.~.",
"9.9.0.0.0.0.0.0.0.0.Z.oX'././.(.XX>./ 2.2.4.0.2.2.2.D e >.,.,.<.%.%.<.S.B.A.h Z C [.&.` D.G.G.G.G.G.G.G.G.G.G.G.G.G.G.G.G.~._.~.",
"9.9.0.0.0.0.0.0.0.0.q.Z.Z./.).XXXX2./ 2.1.2.2.2.9.L r v L D v z S C l z k G h d D ~.&.` D.`.`.`.`.`.`.`.`.G.G.G.G.G.G.G.G.G.G.G.",
"0.0.0.0.0.0.0.0.0.0.0.0.0.:.&.%.:.` Z +.:.4.1.2.0.l > k ..R B.~ k D T M.~ B.h d > o.-.I ~.D.3.3.2.-.3.3.3.D.`.G.G.G.G.G.G.G.G.G.",
"9.0.0.0.0.0.0.0.0.0.0.9.L :.C.V.9.9.4.0.9.2.0.2.2.C 5 f A.>X7X-Xm O.P.,XU.K.w 5 e o.=.` D.L %.:.%.O.o.+.X.4.D.G.G.G.G.G.G.G._.~.",
"9.0.0.0.0.0.0.0.0.9.0.2.O.5X5X5X5X3X3XdX#XC 0.1.0.( e r g V a a l y 8 g 6 7 y 5 >.).o.P q.P 6XsXsXsXsXsX6XOX&.`.G.G.G.G.G.G.~.G.",
"0.0.0.0.0.0.9.0.9.0.2.S F %.O.O.+.%.&.:.R r *.8.2. .5 4 ^ ! Q Q W W ! ! T T a z K X.F G o.h ,.V.9.4.9.,.N.,.l =.[.G.G.G.G.G.G.~.",
"0.0.0.0.0.0.9.9.9.7.2.0 L C.2.4.1.0.0.Z.L r C.&.%.E >.f 9 2 2 : : 2 3 3 4 # I O.m O.%.*.4 6 2.C.4.N.4.4.C.C.g 5.`.G.G.G.G.G.~.~.",
"0.0.0.0.0.0.9.9.0.&.4.f S :.+. . .=.#.X.S t C.v 1. .L D x X   + X     + . 0 K 4 D V P o.> r  .@.+.O.....+.+.d G D.G.G.G.G.G.~.~.",
"0.0.0.0.0.9.9.9.9.2.S : v +.o...` .... .v : M 0 b i % : l R l g y y g z V R u $ t # ; r 4 r (  .1.O.R ..+.+.5 h t.Q.G.~.G.G.~.G.",
"0.0.0.0.0.0.9.0.9.7.D 4 v X.( L L  .....v % &.V.4.O.R j r *.o.] o.] ` ] ` : % / -.R o.G - e L  .6.+.L  ...@.5 j 3.G.G.G.G.G.~.G.",
"0.0.0.9.9.9.9.9.9.2.v 0 v ` ( ( ( G (  .v % 2.sX1X3X2X1X4.c Z D ( D Z ) G O.q.8X[.:XiXy.$ r L L +.+.+.J J +.0 j 8.G.D.D.G.G.G.~.",
"q.q.q.0.0.0.0.0.0.0.D 0 v  .( ( ..( (  .v $ L *X%XtX:X*X*XoXoXOXE.E.E.&X9X0XqXwXd.0X|.h $ r | L L L  .D L X.4 C D.`.~.~.~._._._.",
"&.&.&.&.&.&.&.*.&.&.=.C t D v v b v v v t % 4 / / ` o. . .X.+.+.#...i.v.b.p.s.l.z.h.) 4 & : t t x h k h t h v 5.t.5.3.3.0.0.0.0.",
"G G G G D D D D G G / G u : : - $ : : % - : q o. .=.8.+.*.&.:.&.1.d.aXc.m.p.e.e.e.h.$.r ; ; # ; = = , 4 ; k ;./ / / / / G / / / ",
"Z.Z.Z.Z.Z.Z.Z.Z.Z.D.G.G._.2.0 0.=.0 : : ; & q ] *._ -.=.+.&.:.=.+.f.wXeXm.x.i.eXj.j.o.x : & # , & 3 -X<. .#X[.oX.X).).).(.(././.",
"Z.Z.Z.Z.D.D.~.~./._._._.[./.r C G e : 2 $ $ 2 L  .x ( =.+.=.1.1.&.d.0X&Xv.x.s.l.h.a.$.x : & , 0 : 4 l r 4.;X@X#XoXoX@XoXoXoXoXoX",
"7.7.2.2.2.2.2.7.7.7.9.9.0.0.r X : - : : j r = ( #./ / ( X.X.o.o.o.;.|.2.x.g.p.n.l.j.;.e * 4 : : C h 0 - &.[.G.G.G.G.G.G.G.D.G.D.",
"9.9.9.9.9.9.9.9.9.9.9.9.0.0.e D X.P q 9 T.P @ L =.t.-.L +.+.=.o.+.=.#.+.i.a.r.a.} } ` r % =.v $ 2.`.0.; X.[.G.G.~.~.G.~.~.~.~.~.",
"9.9.9.9.9.9.9.9.0.9.0.9.0.q.e &.D.Z.D : Y.P $ G o.( D F  .+.+.%.&.-.+...J ..| H ( G / f q t.` % 2.G._.; ] [.D.G.G.G.~.~.~.~.~.~.",
"9.9.9.9.9.9.9.9.0.0.0.0.0.q.h 2.1.Z.( 0 Z.O.% > r x h r d v j v n i t p v ) x b Z c i 0 u [.X.  3.2.4.2 o.[.D.D.G.G.~.~.~.~.~.~.",
"9.9.9.9.9.9.9.9.9.9.9.9.0.9.t L L X.h q Z.9.4 = 4 : 4 q 4 5 r T N N N B 9 q 9 0 q w q q G D.P $ L X.S ; X.`.D.D.G.G.~.G.~.~.~.~.",
"9.9.9.9.9.9.9.9.9.9.9.9.0.9.: 0 X.] % 0 9.0.=.u 7 6 4 q r r z L.I.I.I.H.2 4 r : a B q / D.Z.2.- g J 1.: P oXD.D.D.D.G.G.~.~.~.~.",
"9.9.9.9.7.9.9.9.7.7.7.7.9.2.t.v *.2.: q >.9.q.C Y U.A 2 6 6 l E E U U A y 6 6 ; J.H.* o.0.0.[.q h X.{.4 0.2.9.~.D.D.G.~.~.~.~.~.",
"9.9.9.7.7.7.7.9.7.7.7.7.C & c 2 ; ; $ u 9.7.9.K a s g c 5 2 d H L S K K g h d g a 6 j 0.q.G.` 4 : 0 t q 4 $ ] `.D.D.D.~.~.G.~.D.",
"9.7.9.9.9.9.7.7.7.2.0.l G 3.o. .o.L C 4  .0.7.V.2.i w e e , ; : t 4 5 4 , , = : q X.q.9.0.G.; h 4.F.}.7.q.&.I ~.D.D.D.D.D.D.D.D.",
"7.7.9.7.7.7.7.7.7.2.7.0 +.tX*X#X*X/.G.0 l A.w.9.q.`.[ 0 e r > 4 e y y r ; = $ q 4.2.2.>.0.0.$ ` 9.D.rXoX~.`.q ] `.D.D.D.D.D.D.D.",
"9.9.9.7.7.7.2.2.2.7.9.: +.T.Z.[.2. .F $  .'.~.Y./._.Z.C 0 q 5 e j C Z h ; : : v 4.0.q.0.D.&.$ h G ] 1.9.D.&Xv 3.D.Z.D.D.D.D.D.D.",
"9.9.9.9.7.7.7.2.9.L v ' _.A.0./.>.R P - P /.'.P j x f e 4 : e t t r q 0 0 0 : - t Z C P q.o.- 6 V *.7.>.~.[.%X .4 q.D.Z.D.D.D.D.",
"7.7.9.9.7.9.7.2.q.x   0.oX/.V.V.%.] G $ G Y.C 1 ; 4 , , , 2 -.}.+X+X8X{.G = - : 4 t ; : *.P + S L &.&.%.D.[.[.j $ 0.D.Z.D.D.D.D.",
"9.9.9.7.7.7.7.2.0.C $ 8.=XoX9.%.1.X.G : v 2.t F R  . .M ; u X.o.+.o.` ` ` 4 * C *.>.0.C h F $ D  .*.&.&.D.&X%XG : 0.D.D.D.Z.D.Z.",
"9.4.7.9.7.7.7.2.9.j : X.*.*.1.1.+.&.S : f d S ~.1.y.C. .$ e o.G P G j ` o.0 : +.2.%.4.` x o.1 g P  .*.2.+.Z o.Z $ 0.Z.Z.Z.q.D.D.",
"9.7.7.9.7.7.7.2.q.j & : .   v &.X.&.v & r  .+.0.:.D.4.k - 2 D y j G c v L : : D D.0.:.../ ' = 5  .P %.&.q   w : = Z.D.Z.Z.Z.D.D.",
"7.7.7.7.7.7.7.2.&.S D $.o.o.: 2 h j q D L 0.0.+. .X.S $ ; % h c D D v G Z 2 : ; L 0.1.2.-.o.P x j y r t q *.=.*.' ` 0.D.q.D.D.D.",
"7.7.7.7.9.2.0.*.$ -.&X8X|.F.2 : : % : ( ..2.D.A.%XZ.D 4 : - : u u 5 h e - - 2 4 ` iX:X#X=XF.L 2.$ *     2 }.=X[.D.2 ` ~.D.D.D.D.",
"9.7.7.7.7.7.0.*.- =.`.y.( o.2 & - 2 < L [.*X*X#XtXD.v h $ 5 j $ - $ < : q : & y k Z.<X:XtXZ.X.3.C u ] c * =.*.o.&XC u D.y.D.D.D.",
"0.0.0.0.0.0.Z.&.: o.0.3.v 3.q q / %Xb 8.pXyXtXtX*XG h l 4 S 0.*.=.X.2.~.(.u - u r S =X<X<XyXiX( D.=.' Z o [ o./ 8Xb v ).D.D.~.~.",
"X.X.X.X. .'  .` - G ` h e / 0 / Z 3.G o.`.0.0.y.=.b g j r L  .=.+.X.+.+.+.v 4 u 5 b #.8.0.t.8.i =.y.: u & v G t o.q Z -.=.=.=.=.",
"G G ( ( L ( ` X.L x t % %   * =.o.G u - - - < 0 t v 6 t L %.&.*.+.*.%.&.&.>.:.5 = v h $ X X X   2.oXD.=.$     % $  .[ ' ` ` ` ` ",
"9.9.9.9.9.0.0.q.Z.*.G G Z Z D 8.~.&.o.yXrXrXrX' ; v h h :.4.>.>.>.>.>.:.:.1.>.C 4 v : o.:X*X;X;XO.0.oXC.o.O.*.+.X.). X(.).'.).(.",
"9.9.9.9.9.9.9.0.0.q.q.Z.Z.q.`.0.O.j L oX`.[.}...2 k x C L D D D D D D S D J D L u r 2 &.oX X(.oXC S &.&.].oXoX)./.Z.Z.Z.Z.Y.~.~.",
"9.9.9.9.9.9.9.9.9.9.9.9.9.0.3.1.L : j O.L L ..C 9 & 4 D ( L L L L L L L L L L v : : 2 l D S l S 0 h  . .q.~.0.2.2.2.2.2.2.2.2.2.",
"9.9.9.9.9.9.9.9.9.9.9.9.0.2.( G G : v 1.+.+.*.h * : 2 L L L L L L L L L L L J 4 r 0   S X.L ` +.4 k  .X.=.0.0.7.7.7.7.7.2.7.7.7.",
"9.9.9.9.9.9.9.9.9.9.9.9.0.+.G v C : x X.L  .` ,   ` ` u L L L L L L L J J L S & ( X.x v G C C G , k ..( G o.q.7.7.7.2.2.2.2.2.2.",
"9.9.9.9.9.9.9.9.9.9.9.9.0.+.D v S 4 * - $ % - v D ` Z 2 D L L L L L G L L L S ; 4  .*.4   $     - v  . .L +.0.7.7.7.7.7.7.7.7.7.",
"9.9.9.9.9.9.9.9.9.9.9.7.9.+.v D G 0 : e q q : #.=.( r e J L L L G L L L L L S 4 0 C  .L j j e C e h  . .L +.0.7.7.7.7.7.7.7.7.2.",
"9.9.9.9.9.9.9.9.9.9.9.9.9.*.v D D : h =.=.o.X.( v D : r L L L L L L L L J L D r : h Z k L +.X.D.D h +. .( =.0.7.7.7.7.7.7.7.7.7.",
"9.9.9.9.9.9.9.9.9.9.9.9.2.2.L L L 2 u o...' &.S   0 0 v L L L L L L L L J J D D 0 , - h D o...J e k X. ...=.0.7.7.7.7.7.7.7.7.7.",
"9.9.9.9.9.9.9.9.9.9.9.9.9.2.>.*.D x q 2 4 q q 0 : u G L L L L L L L L L J J L L S S 4 : u t 4 = 4 C ( 2.0.3.7.7.7.7.7.7.7.7.7.7.",
"9.9.9.9.9.9.9.9.9.9.9.9.9.7.>.2.D / C : : : - - Z ( L G D D G L J J J J J J J J L L h : $ $ $ q o.2.#.8.0.9.7.7.7.7.7.2.7.7.7.7.",
"9.9.9.9.9.9.9.9.9.9.9.9.7.2.4.4.:./ ( 9.2.2.2.2.&. .( L L L L L J J J J D D D G G G ( ` *.*.+.o...1.0.4.7.7.7.7.7.7.7.7.7.7.7.7.",
"9.9.9.9.9.9.9.9.9.9.9.9.7.7.7.7.0. .` q.Z.q.q.q.0.9.7.9.9.9.7.7.7.7.7.7.7.2.2.2.2.0...` 0.0.2.2.2.7.7.7.7.7.7.7.7.7.7.7.7.7.7.7.",
"9.9.9.9.9.9.9.9.9.9.9.9.7.7.7.7.0. .` 0.9.9.9.9.9.9.9.9.9.9.9.9.9.9.9.0.q.q.q.q.q.Y.X.` 0.8.7.9.9.9.7.7.7.7.7.7.7.7.7.7.7.7.7.7.",
"9.9.9.9.9.9.9.9.9.9.9.7.7.9.7.7.0. .( 0.9.9.0.9.9.9.9.9.9.9.9.9.9.9.9.9.9.9.0.q.q.Z.X.` 0.7.7.7.7.7.7.7.7.7.7.7.7.7.7.7.7.7.7.7.",
"9.0.9.9.9.9.9.9.2.7.9.9.9.9.9.9.0.X.( 0.9.9.9.9.9.9.9.9.9.9.9.9.9.9.9.9.9.9.0.q.q.Z.X.` 0.8.7.8.7.7.7.7.7.7.7.7.7.7.7.7.7.7.7.7.",
"9.9.9.9.7.8.7.3.=.2.9.9.9.9.9.9.0.X.( 0.9.9.0.9.9.9.9.9.9.9.9.9.9.9.9.9.9.0.q.q.0.Z.X.` 0.8.7.7.7.7.7.7.7.7.7.7.7.7.7.7.7.7.7.7.",
"7.9.9.9.u.k.u.2.=.2.2.2.2.2.7.9.q.o.( 0.9.0.9.9.9.9.9.9.9.9.9.9.9.9.9.9.9.0.q.q.0.Z.X.` 0.8.7.7.7.7.7.7.7.7.7.7.7.7.7.7.7.7.7.7."
};
