/* XPM */
static char *_42a436221124435a9d877885dbbde46[] = {
/* columns rows colors chars-per-pixel */
"64 64 227 2 ",
"   c #1C1F30",
".  c #1D2132",
"X  c #1E273A",
"o  c #1F202F",
"O  c #222434",
"+  c #252937",
"@  c #242738",
"#  c #252A3A",
"$  c #292D3D",
"%  c #2A2736",
"&  c #3C2C3B",
"*  c #382938",
"=  c #2B313F",
"-  c #38313E",
";  c #462635",
":  c #492436",
">  c #442B3C",
",  c #43323E",
"<  c #4C363E",
"1  c #56373E",
"2  c #7E2734",
"3  c #65333E",
"4  c #7D222D",
"5  c #2B2F40",
"6  c #232D41",
"7  c #3B2F42",
"8  c #2D3343",
"9  c #2F3846",
"0  c #2D374A",
"q  c #323545",
"w  c #3B3445",
"e  c #313946",
"r  c #343748",
"t  c #343D4B",
"y  c #3B3D4B",
"u  c #343F50",
"i  c #423344",
"p  c #483A48",
"a  c #5B3C43",
"s  c #573743",
"d  c #653642",
"f  c #6B3543",
"g  c #643A44",
"h  c #733E4B",
"j  c #35414E",
"k  c #39414E",
"l  c #364151",
"z  c #3A4452",
"x  c #3D4A56",
"c  c #3E4D5A",
"v  c #324059",
"b  c #3F505C",
"n  c #3D5365",
"m  c #49414E",
"M  c #424B56",
"N  c #414E5C",
"B  c #484854",
"V  c #564854",
"C  c #42515E",
"Z  c #45525F",
"A  c #43525E",
"S  c #4B585E",
"D  c #53434E",
"F  c #69434B",
"G  c #74434C",
"H  c #79484A",
"J  c #6D4651",
"K  c #674854",
"L  c #744652",
"P  c #7A4651",
"I  c #754954",
"U  c #794A54",
"Y  c #734C58",
"T  c #424F60",
"R  c #455260",
"E  c #455561",
"W  c #445461",
"Q  c #4A5562",
"!  c #465965",
"~  c #4A5A65",
"^  c #465A69",
"/  c #4A5D6A",
"(  c #445768",
")  c #4C5C6D",
"_  c #4C626D",
"`  c #47616E",
"'  c #52646E",
"]  c #5C686C",
"[  c #4D6472",
"{  c #526672",
"}  c #556B75",
"|  c #5A6C74",
" . c #566E79",
".. c #596C77",
"X. c #5C737C",
"o. c #58737B",
"O. c #626C69",
"+. c #69736C",
"@. c #646E72",
"#. c #647577",
"$. c #727B77",
"%. c #9A1D2F",
"&. c #971F32",
"*. c #852E3A",
"=. c #872A37",
"-. c #922133",
";. c #9D2333",
":. c #9B2A36",
">. c #9C2E3A",
",. c #952C38",
"<. c #8C333D",
"1. c #85333E",
"2. c #94333D",
"3. c #9C313D",
"4. c #93383F",
"5. c #A32333",
"6. c #A42B37",
"7. c #A42E39",
"8. c #AB2E3B",
"9. c #AA2735",
"0. c #A2313B",
"q. c #AA313C",
"w. c #AC383F",
"e. c #B3363D",
"r. c #A41F2F",
"t. c #8C3441",
"y. c #873A43",
"u. c #933B43",
"i. c #993B42",
"p. c #A63D42",
"a. c #AC3D43",
"s. c #AD3542",
"d. c #B23E46",
"f. c #C33F43",
"g. c #84494C",
"h. c #89524E",
"j. c #834652",
"k. c #854A54",
"l. c #8B4B54",
"z. c #8D4751",
"x. c #934D55",
"c. c #9B4D55",
"v. c #9D4F5A",
"b. c #9C5259",
"n. c #995553",
"m. c #914F4E",
"M. c #A94448",
"N. c #BB454B",
"B. c #B64348",
"V. c #A64E57",
"C. c #A84F57",
"Z. c #AB5157",
"A. c #A4535A",
"S. c #AA5359",
"D. c #A85759",
"F. c #B65855",
"G. c #B7534F",
"H. c #BC655B",
"J. c #BB685D",
"K. c #BC6C61",
"L. c #C34247",
"P. c #C44549",
"I. c #C54A4A",
"U. c #D54B4B",
"Y. c #DB4D4E",
"T. c #D64947",
"R. c #D6524E",
"E. c #DE5151",
"W. c #D64F4F",
"Q. c #E34E50",
"!. c #E85755",
"~. c #F25655",
"^. c #F15958",
"/. c #E04D4F",
"(. c #C06A5F",
"). c #C37064",
"_. c #78847E",
"`. c #838A7B",
"'. c #D19276",
"]. c #D1957A",
"[. c #D39A7D",
"{. c #5C7681",
"}. c #5E7984",
"|. c #557683",
" X c #627C85",
".X c #647E88",
"XX c #667B84",
"oX c #65838B",
"OX c #68838B",
"+X c #678389",
"@X c #748688",
"#X c #6B8B93",
"$X c #728D93",
"%X c #6E919A",
"&X c #739297",
"*X c #8A9388",
"=X c #93998B",
"-X c #9C9E91",
";X c #9BA393",
":X c #A6AB97",
">X c #AFB398",
",X c #B8BCA6",
"<X c #D7A983",
"1X c #E3BB8F",
"2X c #E4BF90",
"3X c #BDC1A8",
"4X c #E8C699",
"5X c #ECD19F",
"6X c #F4DA9E",
"7X c #D9D8BA",
"8X c #CBCBAA",
"9X c #EDD2A3",
"0X c #EED6A8",
"qX c #F3DCA4",
"wX c #F3DDAA",
"eX c #F2D5A1",
"rX c #E9CFA0",
"tX c #F7E6AB",
"yX c #F3EBB7",
"uX c #FBF5C3",
"iX c #FFFBC3",
"pX c #FFFECB",
"aX c #F7F5C7",
"sX c #FDFCD5",
"dX c #EEEAC8",
"fX c #FFFFE5",
"gX c #DEDEC3",
/* pixels */
"x z $ 8 x z 8 8 z $ # k t z z z z z z z z z z z z z z z z z z # t x z z z z z z z z z z z z z z z z z z @ e x x z z z z z z z z ",
"C N e t R C t t R 8 8 N x c C C C C R R C R C C R R R E E E E $ t ~ Z E E R R R E E E E E E Z Z Z Z Z R # t ! E E E E E E E R R ",
"N N C N N C C N c 8 = x z N C C C N c N C C N b C T R R C E C 8 l ~ E E R Z Z C C Z C C C C C C C N N Z # t E Z R Z Z R R Z Z Z ",
"N N N N N C N C C 8 8 C x x x c c c c c c c c c c c N T R R R 5 z Q Z Z Z Z C N N N N N N N N N N N N C # t ~ E E R Z Z R R Z Z ",
"N N C C C C R Z C = $ u $ + # # # # # # # # # # # # $ $ $ $ $ # $ $ $ $ $ $ + # + + # # # + + # # # # # @ # 8 t E ~ E E E E E E ",
"z z z z z z x z t $ $ 8 $ # # # # @ @ @ @ # @ @ 6 @ 6 6 8 0 0 0 t 0 0 8 6 X @ # X X X X @ # # # # # # $ 5 5 # 8 N Z C N N C N N ",
"# # # # $ $ $ $ $ $ # z / ~ ! E E E W C C C ~ O.O.] ] @.' ' | Q C ~ ~ W @.$.O.S ] +.+.+.O.~ W W E E E ! ! / x # r q $ 8 5 5 8 5 ",
"! ! ~ ! ~ ~ ~ ! z $ $ E / / ~ ^ ^ ^ ^ ! ~ c *XiXiXpXsXdX~ :XuX$.] dX,XA 7XfX8XS yXsXaXpXiX#.W ~ ^ / / / _ ' x # Q ~ ~ ~ ~ Q ~ ~ ",
"} } } } } }  . .Z $ $ C / / / / ^ ^ ! ! ^ c =XpX:X-X:X=X^ ,XsX+.O.sX7Xb >XsX3X! *X:XaX8X;X| ! / / / / / / { x 5 { X..... . . . .",
"Z Z Z Z Z Z Z E N # $ {  ./ / ~ ^ ^ ^ ^ / c =XpX`.@.@./ ) _.:X,X8X:X_.W *XiX$.^ ! ~ uX:Xv ^ ^ ^ / / / / _ }.N 5 Q ~ Q Q E E E R ",
"Z Z Z Z Z Z Z E N $ $ X. X! / / ^ / ^ ^ / c =XpXuXiXiX*Xn [ *XfXsX;X{ ` -XuX@.( ' ] aX:XW / / ^ / / / / / oX/ $ Q Q R R Z Z Z C ",
"Z Z Z Z Z Z Z E c # $ }  X} _ / / / / ^ ^ c =XpX-X$.$.] ) ..:X,X3X=XX.` *XyX#.^ { | aX:Xb / / / / / / _ }  .R $ Z R Z Z Z C C C ",
"Z Z Z Z Z C Z E x # $ z {.&X} / _ ' _ _ _ n =XpX@X~ ' ' ^ :X7X@.$.7X:X_ -XiX#.^ } X.aX:Xn _ _ _ [ [ _ { #X .x 5 C Z C C C C C C ",
"Z Z C Z Z C C Z x # # 8 z E +X+XOXoXoXoXoX|.:XpXuXyXiX8X] dXyX#.$.sXdX`.aXfX7X;X{ #.pX,X|..X}..XoXoX#XOX^ t 8 8 N C C C C C C C ",
"R Z Z Z Z C C Z x @ # 8 t t o.....X. X X X .*X,X,X,X8X>X' :X>X#.#.,X3X_.8X7XgX:X} @X7X;X{.+X+XoX X .X. .l u 8 # N C C C C C C C ",
"R Z Z Z Z Z C W x @ # t l t e 8 8 M #.X.| o. .[ [ [ [ {  .}  .X.X.X.} {. .o...X.XXXX#.X.{.X. X{ = 5 8 t x W 0 # c N N C C N N C ",
"Z Z Z Z Z Z C A x @ + t ~ E E ~ e k Q S Q Z Z Z M M M M x M M N N A c b R R Q Q Q Q Q Q Q Q Q N 8 t x x A E 8 @ x N C C C C N C ",
"Z Z Z Z Z C C C x # + t ~ R ..XXq r w w i i i w & & & & & * * & & & & & > i i i i i i i i i 7 w 8 E X.~ _ / 8 @ x b C C C C C N ",
"Z Z Z Z C Z C C x # + t ~ E ' } e p y.u.t.t.t.t.1.*.*.*.*.*.*.*.*.<.<.*.<.<.<.t.t.t.t.t.t.y.M.y.q R X._ / W 8 @ x c c C C C C C ",
"Z R Z Z Z C C C x # + t {.X..X Xe s I.i.1.3.3.>.>.>.>.>.>.>.>.>.>.>.>.>.>.0.7.7.7.>.>.7.2.<.N.u.q N  .X.X._ 8 @ x N N N C N C C ",
"Z Z A A C C C C x # + t X.{.#X#Xq s I.i.1.2.i.3.2.>.>.>.>.>.>.>.>.>.>.>.>.>.>.>.>.3.3.0.2.y.N.u.q ~ oX Xo.} 8 @ x N N N C C C C ",
"Z Z E C C C C Z x # + t ^ ~ }..Xq d W.M.1.2.3.3.3.3.3.3.3.3.3.3.3.3.3.3.3.3.3.>.>.>.>.7.<.y.I.u.7 ~ #X' ~ / 8 @ x N c N C C N N ",
"Z Z C C C C C x z # + t _ ! }..Xq d R.M.*.2.3.3.3.,.-.-.-.-.-.-.&.-.-.&.-.-.-.>.3.3.3.0.u.y.P.i.w ^ %X} / / 8 @ x c c c c c N C ",
"E E E E E E E 8 # O O t _ ! }..Xq 3 R.M.*.2.2.3.>.M.K.J.J.J.J.J.J.J.J.J.J.J.K.M.>.0.3.0.<.y.P.i.7 ^ %X ./ _ 8 # x b C C C C C C ",
"j l j j j t t = O   @ t _ ! }. Xq 3 R.M.*.3.3.0.5.).tXqXqXqXqX6X6X6X6X6XqXqXtXJ.:.q.0.0.<.u.U.p.> / %X ./ _ 8 # = 8 t 8 8 8 9 9 ",
"8 8 8 8 8 $ # $ @ . + t _ ! }. Xq 3 R.M.*.0.q.q.5.(.wX5X5XeXeX6X6X6X6X6XeXqXtXH.:.q.0.0.<.i.Y.p.> ^ %X ./ _ 8 # + @ # # # # $ $ ",
"' ' ' { { ' ~ t 8 O + t _ ! }. X= 3 R.M.*.0.q.q.5.K.tX9XeX4X4X4X4X2X2X1X1X1X4XF.:.0.0.0.<.t.U.p.> ~ %X ._ _ 8 $ c b _ _ _ _ _ _ ",
"/ / / / / / ~ j e @ + t _ ! }. X= 3 U.a.*.0.8.q.5.(.wX9X5XB.8.q.8.8.8.7.7.7.7.7.7.7.0.0.1.t.U.p.> ~ &X ._ _ 8 $ z x C C C C C C ",
"A N N N N N N j e @ + t _ ! }. Xq 3 U.a.=.0.q.q.5.J.wX9X9XB.9.8.8.8.8.8.8.7.7.7.>.7.7.7.1.<.T.p.> ~ &X ._ _ 8 $ t j t t t t j j ",
"C Z A C Z E N j 9 @ + t _ ! }. Xq 3 U.a.=.>.q.q.5.J.wX9X9XB.9.8.8.8.8.8.8.7.7.7.7.7.7.>.1.<.T.p., ~ &X ._ _ 8 $ j l j j l l l l ",
"C C C Z C z z j e @ + t _ ! }. Xq 3 U.a.=.>.7.q.5.J.wX9X5XB.6.q.q.s.s.w.7.7.7.7.7.7.7.0.1.t.T.p.& ~ &X ._ _ 8 $ j j j j j j j t ",
"C Z C C N j j j e @ # t _ ! }. Xq 3 U.a.=.7.7.q.5.J.wX9X0X4X4X4X4X4X9X<X6.7.0.7.7.7.7.0.1.t.T.p.& ~ &X ._ _ 8 $ t j j j j j t t ",
"C x x N z j j j e + # t _ ! }.+Xq 3 U.a.=.>.7.7.5.J.wX9X0XwXwXwXwX0XtX1X7.0.7.7.7.7.7.7.*.<.T.p.& ~ &X} _ _ 8 $ j j t t t t t t ",
"C j t t j t j j e + $ j _ ^ }.+Xq 3 U.a.2 >.7.7.5.H.wX9X0XwXwXwXwXwXtX2X6.7.7.7.7.7.7.7.*.<.T.p.& ~ $X} _ _ 8 $ j j j j j t t t ",
"z j t t t t j j e + $ j [ ^ }.+Xe 3 U.a.2 >.7.7.;.H.wX9X0X).H.H.H.H.F.G.6.7.7.7.7.7.7.7.<.<.T.p.& ~ $X} _ _ 8 # t j t t t t t t ",
"t t j t t t t 9 = + $ j [ /  X+Xe 3 U.a.2 >.7.7.;.H.wX9X9XB.9.9.9.9.9.9.8.7.7.7.7.7.7.>.1.<.T.p.& ~ &X} _ / 8 # t t t t t t t t ",
"t t t t t t t e $ @ $ j [ /  X+Xe 3 U.a.2 >.7.7.;.H.qX9X9XB.8.e.e.q.q.q.q.7.q.7.7.7.7.7.1.<.T.p.& ~ &X} _ / 8 # t t t t t t 8 8 ",
"t t t t t t t e $ @ = z [ _ +X+Xq 3 U.a.=.>.7.7.;.H.qX5XrXw.r.5.5.5.5.5.;.5.;.:.7.7.7.0.<.<.T.p.& ~ $X{ _ / 5 # t t t t t t 8 e ",
"t t t t t j j 8 $ @ 8 x _ !  . Xq 3 U.a.2 >.7.0.;.H.qX5XrX[.'.'.].].].].].].[.M.:.0.0.3.<.<.T.p.& ~ #X~ c c = # t t t t t t 8 8 ",
"t t t t t 9 e 8 $ @ = x { ! _ X.r 3 Y.d.2 >.7.0.5.H.0X5X5XqXqXqXqXqXqXqXqXqXtXF.;.0.7.3.<.t.U.p.& Q $XE c c $ # t t j t t t 8 8 ",
"t t t t t = = 8 $ O = x {.}.#X.Xr d Y.d.=.>.7.0.5.(.tXqXqXqXqXqXqXqXqXqXqXqXtXG.:.0.0.3.<.u.Y.p.& Q +X/ } _ # # 9 9 e e e e 8 8 ",
"t t t t e 8 = = $ O = x  .}.#XOXr d Y.d.=.7.7.0.9.F.<X[.[.].'.].'.'.'.'.'.'.'.M.>.0.3.3.2.4.Y.p.* Q $XX. ._ $ # 8 8 8 8 8 8 8 8 ",
"e e 8 8 8 = 8 8 $ @ $ x } / .X#Xw f Y.B.=.7.7.7.q.6.5.5.;.%.%.%.%.%.%.%.%.%.%.7.0.7.3.3.2.i.E.p.* Z OX} ! A # + e 8 e e 8 8 8 8 ",
"= = 8 $ # $ # + O O $ z } /  XOXw f E.B.=.7.7.7.8.8.8.7.0.7.7.7.7.7.7.7.7.7.7.7.7.0.3.3.2.i.Y.p.* N {./ c C # O = 8 8 8 8 8 8 8 ",
"O . O . . . .   O . # x { / }.OXw f Y.B.=.7.7.8.7.7.7.7.7.6.6.6.6.6.6.6.6.7.7.7.7.0.3.3.2.i.Y.p.* x  X_ C b # O o O O O O O O O ",
"8 e e e 8 8 8 $ @ . # x { /  X+Xw f Y.B.=.7.7.8.8.7.7.7.7.6.6.6.6.7.6.6.7.7.7.7.0.3.3.3.2.2.E.p.* x }./ A C # O $ 8 8 8 e e e e ",
"t z z z z z z t @ . $ x [ /  X+Xw f /.d.=.7.8.8.8.7.7.7.7.7.7.7.7.7.7.6.7.7.7.7.7.3.3.3.,.2./.p.* M  X/ C C # O t t t t t t t t ",
"8 8 q 8 8 8 8 8 # @ $ z _ ^ }..Xw f /.d.=.7.q.7.7.7.7.7.7.6.7.7.7.7.7.7.7.7.7.7.7.3.3.3.,.3.E.p.* M  X~ b C # @ 8 8 8 8 8 8 8 8 ",
"8 8 8 8 8 8 8 # # . # l / ^ }..Xq f Q.a.4 :.6.:.:.:.:.:.:.:.:.:.:.:.:.:.:.:.:.:.:.,.,.>.=.2.!.p.* N  X_ C b # @ # $ $ $ $ $ $ $ ",
"$ $ $ $ $ $ # + # O @ t / ! {..Xq d /.I.e.f.L.L.L.L.L.L.L.L.L.L.L.L.L.L.L.P.P.P.P.P.P.P.N.I.!.p.& Z +X' Z A $ + @ O . O O O O O ",
"@ O O O O . . . . . . t / ! X.XXq f Q.^.^.^.~.~.~.~.~.~.~.~.~.~.~.~.~.~.~.~.^.^.^.^.^.^.^.^.!.M.- Q $X' E E = + , < , , O O O O ",
"O O O O O O . .   O @ t ^ E X.XXq s P.P.N.P.N.N.N.N.N.N.B.B.B.B.N.N.N.N.N.N.N.N.N.N.N.N.N.N.I.t.- Q $X} E Q $ @ 1 1 1 1 O O @ O ",
"$ $ $ $ $ $ # $ # # # t ^ E } } q & ; : : : : : : : : : : : : : : : ; ; ; ; ; ; ; ; ; ; ; ; > & & M | _ ! ~ 8 # 1 d a 1 O O # # ",
"5 8 8 8 8 8 5 5 $ $ $ t Z N R T q s d d f f f f f f f f f f f f f f f d d d d d d 3 d d f f f g w z ~ N N N 8 $ H g.g 1 % O # $ ",
"q q e e e e e 8 8 8 8 $ 8 8 5 $ w b.A.U l.S.Z.Z.Z.Z.S.S.Z.Z.Z.S.S.D.D.D.S.D.A.x.l.j.h z.A.D.Z.C.a 8 0 8 8 8 8 $ h.n.g 1 % + # 8 ",
"e e e e r e e e e 8 e 8 8 8 e 8 i A.A.P k.S.Z.Z.C.C.C.Z.Z.Z.Z.V.A.b.x.A.D.b.b.j.x.l.G x.A.V.A.v.K 0 0 0 0 0 8 $ h.n.g 1 % @ @ $ ",
"e e e e e e e e e e D K K K K J U b.A.G U Z.Z.C.C.V.V.V.C.V.C.l.b.c.k.U P l.A.x.l.b.h x.A.A.A.l.J D D m m p 8 # h.n.g a < , - + ",
"e e e e e e r r y p V Y U U U U U b.A.L k.Z.V.V.V.V.V.V.V.V.Z.x.k.l.b.k.P l.b.x.b.x.g j.z.x.l.G G I L L J K w @ H n.F F a 1 < - ",
"e e r r e r B z D K Y U U U U U U b.c.J U v.c.c.c.c.x.x.x.x.x.l.P k.D.D.x.x.l.l.x.j.a G j.j.j.j.G L U U Y L w # , g.D.h.a 1 1 s ",
"r r r r r t y B K U U U I U U U U U j.F I A.v.j.k.k.k.k.k.k.l.k.U k.b.b.l.l.l.l.k.P s G x.x.x.j.P I L U U I p w % F h.g.H G G G ",
"r r e t z B V B K U U I U U U U U I U a J b.l.I P I U U U U U U U U U U U L I P L J p L A.A.c.P G U U U U I U K * $ - h.n.n.n.m.",
"e r t t z B V V K U I U U I I U U U U a F U U U U U U U U U U U U U U U U U L L L J p L V.A.x.P L U U I I I Y J K - $ < a D 1 1 ",
"8 y m y z B Y Y U U U U U I U I I U U a F U U U U U U U U U U U U U U U U U U I U J s F I I L L I U U I L L L Y L p e @ . . . . ",
"y m m B z B Y Y U Y Y Y Y L U I I I U a F U U U U U U U U U U U U U U U U U P U U J s F L L L L L Y Y Y J J L Y L K x t + $ # @ "
};
