/* XPM */
static char *c2b369b5ccae412fbd59c0ce069bae01[] = {
/* columns rows colors chars-per-pixel */
"64 64 53 1 ",
"  c #3C4750",
". c #3D4950",
"X c #424E56",
"o c #434F58",
"O c #435057",
"+ c #45535B",
"@ c #48565E",
"# c #47585F",
"$ c #49585F",
"% c #475760",
"& c #495760",
"* c #4A5962",
"= c #4D6167",
"- c #4F636A",
"; c #50666C",
": c #52686E",
"> c #556D74",
", c #586F77",
"< c #567076",
"1 c #587177",
"2 c #577078",
"3 c #5A737A",
"4 c #5C767D",
"5 c #5B7A7F",
"6 c #5F797F",
"7 c #5C7A7F",
"8 c #60797F",
"9 c #5E7A80",
"0 c #5F7B81",
"q c #5F7C81",
"w c #607A80",
"e c #607C83",
"r c #637F85",
"t c #5E8083",
"y c #618286",
"u c #64828A",
"i c #63858A",
"p c #64848A",
"a c #66858B",
"s c #64868B",
"d c #65878B",
"f c #65848C",
"g c #66858C",
"h c #64868C",
"j c #68868C",
"k c #638B8D",
"l c #65898E",
"z c #648B8F",
"x c #618E8E",
"c c #68888E",
"v c #61908F",
"b c #618F90",
"n c #6A8A91",
/* pixels */
"33132233331122,,2,3-o>33333333333333331122%O,1111133311233333333",
"aaaaggggggggggggggg,Oeggaggggggglggggggggg;+yaaaaaaaaggggggggggg",
"aggggggggggggggggag,O0aaagggggagggagggggag;#yaaaaaaaaaaaaaaagaaa",
"aaaggggggagggggggag,O0aaaagggggggagggaaggg;+yaaggaaaaaaagaaagaaa",
"aaggggggggggggggagg,O0aaaaggggggaaggaggagg:@yaglkggaaagaaagaagaa",
"gaggggjgggggggggggg,Oqgaaggggggggggaaggagg>*yggkkggaagggaggaagga",
"ggggggagggggggggggg,Oqggggggggggggaaggaggg>*uagllgggggaagaaagaaa",
"gggggaagggggggggggg2Oqggggggggggggagggaggg>*ugggggggggaagaaggaag",
"ggggggggggggggggggg2Oqgggggggggggggggggggg>*ugggggggggggaaaggggg",
"gggggggllgjgggggggg2Oegggggggggggggggggggg>*uggggggggggaaaaaagga",
"ggggjglxxlggggggggg2Oqgggggggggggggggggggg>*ygggggggggaagaaaggag",
"ggggjgkvblggggggggg2Oqgggagggggggggggggggj>&ugaggaggggaaaaaggaag",
"ggggjgllllggggggggg3Oeggaggggggggggggggggg>&yaggggggggggaaaaagga",
"ggggggjjgjjgggggggg3Oqgggagggggggggggggaag>&uagaaggagggaaggaagga",
"ggggjjgjjjggggggggg3Oqgaaagggggggggggggggg>&ugagggaaggaaagaagaag",
"ggggjjjjjgggggggggg3Oqgaaaaggggggggggggggg>&yaaggaaggaaagaaagaag",
"gggggcjgllggggggggg3O0gaaaaggggggggggggggg:@yaaaaaagggaaaggggggg",
"aagggggggggggjjgggc3O0aaaagggggggggggggggg:&uaaaaaaaaggaaggggggg",
"gagggggggggggglggjc3Oegggaaaagaagggggggggg:*ujagaaaaaggaggggggga",
"gggggggggggggggcccn4+rcjgaaaaaaggggggggggg:$ujgggggggggggggggggg",
"444533333334446000w>O3w6644333344444333333*+34444433334333433344",
"OOOOOOOOOOOOOOO++@@OO@@+++OOOOOOOOOOOOOOOOXXOOO+OOOOOOOOOOOOOOOO",
"444444655064343668w>+3w0w66444660006664443*@4w866666000006666644",
"gggggggkbblaaaggjjc3@egggggaaaggggggggaaaa;*ugaagaaggaggggggaaaa",
"ggaaaggkxxlaaaaaggg3+eaaggaaaaaaaaaaaaaaaa;*uaaaagaaaaaaaaaaaaga",
"aauaaagakklaaaaaaag1@eaaaaaaaaaaaaaaaaaaaa;*uauaagaaaaaaaaaaaagg",
"uaaaaaaaaaaaaaaaaag3@eaagaaaaaaauaaiaaaaua;*uaaaaaaaaaaaaaaaaaag",
"uaaaaaaaaaaaaaaaaaa,+eaaaaaaaaaaaaaaaaaaaa;*yaaagaaaaaaaaaaaaaag",
"aauaaaaaaaaaaaaaaaa,+qaaaaaaaaaaaauaaaaaau;*yaaaaaaaaaaaaaaaaaaa",
"aauaaaaaaaaaaauaaaa,Oqaaaaaaaaaaaaaaaauaaa-#yaaaaaaaaaaaaaaaaaaa",
"uaaaaaaaaaiaaaaaaaa,Oqaaaaaauaaaaaaaaaaaaa-#yaaaaaaaaaaaaaaaaaaa",
"uaaauaaaaaaaaaaaaaa,Oqaaaaaaaaaaaaaaaaaaaa-$yaaaaaaaaaaaaaaaaaaa",
"aaaaaaaaaaiiaaaiaaa2Oqaaaaaaaaaaaaaaaaaaai;@yaaaaaaaaaaaaaaaaaaa",
"aaaaaiaaaaaaaiuiaia2+qaaaaaaaaaaaaaaaaaiai;@yaaaaaaaaaaaaaaaaaaa",
"aaaaiiiiaaaaaaiiiii2+qaaaaaaaaaaaiaiaaaaii;$yaaaaaiiiaaaaaaaaaaa",
"aaaaiiiaaaaaaiiiiii>Oqaauaaaaaaaaaiiaaaiii;$yaaaaaaiaaiaaaaauaaa",
"aaaiaaiaaaaiaaaaaaa,Oqaaaaaaaaaaaaaaaaaiia-@taaaiiaaaaaaiaaaaaaa",
"iaaaaaiaaiaaaauaaaa,Oqaaaaaaaaaaiaaaaaiiai;+taaaiaiaaaaaaaaaaiaa",
"aiiiaaaaaaiiiiaaaaa,Oqaaaiaaaaaaaaaaiiiaaa-+yaaiaaaiiaaaaaiaaaaa",
"iiiiaaaaaaiiiiaaaaa,Oqaaaaiiaaaaaaaaiiiaaa-+eaaaaaaaiaaiaiaaaaaa",
"aaaaaaiiaaiiaaaaaaa,O0aaaaaaaaiiaaaaaaaaaa-+qyaaaaaaaaiaaaaaaaaa",
"aaiaaaaiiaiiaaaaaaa>X6aaaaaaaaaiaaaaaaaiaa;+taaaaaaaaaaaaaaaaaaa",
"---;-;;;----------=+.*=-------------------+X*=---------------;;;",
"#%++%+#++++++++++++. O+++##$$###%###$$++#+oX++#+%%*%%%#+#%++++++",
"yyyyttyyyyyytyyyyyi>X5iyyyyyiiiiyyyiyyyyyy;+qyyyyyyyyyyyyyyyyyyy",
"aaaaaaaiaiaaiiaaaaa,Oqiiaaaaaaiiaaaaiiiiai:@yaaaaaaiiiiaaaaaaaai",
"aaaaaaaaiiaaaaaaaaa2O5iaaaaaaaaaaaaaaaaaaa;@yaaaaaaaiiaaaaaaaaia",
"aaaaaaaiaaaaaaaaaaa<O6iaaaaaaaaaaaaaaaaaaa;$yaaaaaaaiiiaaaaaiiia",
"iiaaaaaaaaaaiiaaaai<+6aaaiaaiaaaaiaiiiaiaa;@yaaaaaiiiaaaaaaiiiaa",
"iiaaaaaaaaaaiiaaaaa2+qaaaaaaaaiiaiiiiauiaa;&yiuaaaiiiiaiaaaiiaaa",
"iiiiiiaaaaaaiiiaaai2Oqaaaaiiiiiiiiiiaaaaaa:*yiiaaiiiaaiaiiiaaiia",
"iiiiiiiiaaaaiiaaaai2+qaaaiiiiiiiiiiiaaiaaa:*yiaaaiiiaaiiiiiiaaii",
"iiuiiiiiiiiaaaaaaaa2+qiiuiiiaiiiaaaaiaaaaa:*yaaaaaaaaiiiaiiiiiii",
"iiiuiiaaiiiaaaaaaaa2+qiiiuiiaiiiaaaaiiiiaa;@taaaiiiiiaaiaaaiiiii",
"iiaaaaaaiiiaaaiiaaa2+qiaaaaaaaiiiiaaaiiiii:$yaaaaaiaiiaaaaiaaaii",
"iiaaaaaaiiiaaaiiaaa2+qaaaaaaaaiiiiaauiiiii:$yaiauiiaiiiaaaiaaaia",
"iaaaaaaaaaiiuiiiaai2Oqaaiaaaaaaiiiiiiiiaaa:$tiiiiiaiiiiiiaaaaaaa",
"aaaaaaaaaaiiiiiiiai2Oqaaaaaaaaaiiiiiaiuiia:$yiiiiaaiiiiiiaaaaaaa",
"aaaaaaiiiiiiaaaaaii2Oqaaiiaaaaaaaaaaiiiaaa:+tiaiaiiiaaiaaaaaaaii",
"iaaaiiiiiiiiaaaaaii2Oqaaiiiiaaaaaaaaiiiaai-+taaaiiiaaaiaaaiaaaai",
"iiaaaaiiaaiiiiaaaai2Oqaaiiaaaaiiaaiaiiaaaa-+qaaaiiiaiiaaiiaaaaii",
"iiaaaaiiaaaaiiaaaai2Oqaaiiaaaaiaaaaaaiaaaa-+qaaaaaaiiiaiiiaiaaii",
"iiiaaaauaaaaiuiaaaa2O6aaiaaaiiiiaiuiaaaaiy-+qaaaaaaaiiaaiiiaaaai",
"iiiiaauiaiaaiiiaaaa2O5aiiaaaiuaiaiiiaaiiyy-Oqiaaaiaiiiiiiiiaiiiy"
};
