/* XPM */
static char *_78123635bd54607a574608d4f1010fe[] = {
/* columns rows colors chars-per-pixel */
"64 64 211 2 ",
"   c #1B151B",
".  c #231A1D",
"X  c #291D1C",
"o  c #28251E",
"O  c #37251D",
"+  c #3A241D",
"@  c #161824",
"#  c #1B1B24",
"$  c #1B1E2A",
"%  c #221E25",
"&  c #1D2A25",
"*  c #1D222D",
"=  c #1D2433",
"-  c #1F2939",
";  c #23242D",
":  c #29272A",
">  c #352722",
",  c #382A25",
"<  c #3C2A24",
"1  c #283829",
"2  c #29392D",
"3  c #38322B",
"4  c #212632",
"5  c #232935",
"6  c #2B2C34",
"7  c #212C3C",
"8  c #2A2F39",
"9  c #322F34",
"0  c #2B3534",
"q  c #2A3A31",
"w  c #2D343A",
"e  c #2B363D",
"r  c #38373A",
"t  c #42291C",
"y  c #4B2C1C",
"u  c #532D19",
"i  c #5C321A",
"p  c #68371B",
"a  c #753B1A",
"s  c #432D23",
"d  c #492F24",
"f  c #483126",
"g  c #4C3326",
"h  c #45322B",
"j  c #543429",
"k  c #53392A",
"l  c #583928",
"z  c #493933",
"x  c #633C2C",
"c  c #34582C",
"v  c #314339",
"b  c #345A31",
"n  c #3C6C33",
"m  c #3A6836",
"M  c #57453A",
"N  c #65422C",
"B  c #6B462D",
"V  c #7B4B2F",
"C  c #694838",
"Z  c #222F41",
"A  c #243245",
"S  c #2A3644",
"D  c #25364A",
"F  c #26394D",
"G  c #293B4E",
"H  c #323D43",
"J  c #3F3E45",
"K  c #273C51",
"L  c #2A3E52",
"P  c #423C41",
"I  c #344145",
"U  c #364349",
"Y  c #3A454C",
"T  c #3C494B",
"R  c #3E5646",
"E  c #2B4155",
"W  c #3F4C53",
"Q  c #3A5254",
"!  c #3C654F",
"~  c #3C685D",
"^  c #474347",
"/  c #584A42",
"(  c #434E54",
")  c #455156",
"_  c #465359",
"`  c #47565C",
"'  c #49565B",
"]  c #4B595E",
"[  c #575658",
"{  c #684E42",
"}  c #685145",
"|  c #7A5646",
" . c #715D52",
".. c #487D45",
"X. c #796253",
"o. c #475C61",
"O. c #4D5D62",
"+. c #505F65",
"@. c #5A5C60",
"#. c #655F63",
"$. c #4E6165",
"%. c #4D666A",
"&. c #4E696C",
"*. c #516166",
"=. c #53656A",
"-. c #55696E",
";. c #58696F",
":. c #566B71",
">. c #596E73",
",. c #487E7A",
"<. c #567275",
"1. c #5A7176",
"2. c #5C757A",
"3. c #5E757A",
"4. c #5E7A7D",
"5. c #646568",
"6. c #726E6E",
"7. c #6C6C70",
"8. c #60767B",
"9. c #61797E",
"0. c #607B7E",
"q. c #894318",
"w. c #934819",
"e. c #9D4C1B",
"r. c #A24F1A",
"t. c #A5511B",
"y. c #AA541D",
"u. c #AF581E",
"i. c #B35A1E",
"p. c #BA5C1E",
"a. c #854B25",
"s. c #8F5329",
"d. c #955426",
"f. c #A95824",
"g. c #B55C21",
"h. c #BA5F20",
"j. c #BC6223",
"k. c #B2652D",
"l. c #C1611F",
"z. c #C36423",
"x. c #C66827",
"c. c #CB6A26",
"v. c #CA6D2A",
"b. c #D07029",
"n. c #D4722B",
"m. c #DA762C",
"M. c #DA7932",
"N. c #DC7B31",
"B. c #E27A2C",
"V. c #E17E32",
"C. c #865B49",
"Z. c #90644D",
"A. c #936C56",
"S. c #9C735B",
"D. c #A6755B",
"F. c #977763",
"G. c #B07B61",
"H. c #438742",
"J. c #4D9445",
"K. c #52984A",
"L. c #5D9F51",
"P. c #55A349",
"I. c #59BA49",
"U. c #5BB654",
"Y. c #65AF53",
"T. c #67BC58",
"R. c #49827D",
"E. c #6AC457",
"W. c #74C45F",
"Q. c #DE8137",
"!. c #E58234",
"~. c #E88134",
"^. c #E38539",
"/. c #B68469",
"(. c #B08B73",
"). c #CB8B6A",
"_. c #C89778",
"`. c #D99B78",
"'. c #5E7D80",
"]. c #627D82",
"[. c #57938D",
"{. c #638085",
"}. c #648186",
"|. c #658286",
" X c #668489",
".X c #678689",
"XX c #688489",
"oX c #7F8082",
"OX c #58A499",
"+X c #69A39D",
"@X c #5EAEA3",
"#X c #66A7A0",
"$X c #67B6AD",
"%X c #68BCB2",
"&X c #6BC4B7",
"*X c #6FD1C2",
"=X c #929193",
"-X c #CCA182",
";X c #DCA582",
":X c #CDA890",
">X c #E6AB86",
",X c #E9B694",
"<X c #EEB995",
"1X c #F1BA95",
"2X c #F1BB97",
"3X c #C0BCBE",
"4X c #F2C09D",
"5X c #F1C8AD",
"6X c #C7C4C5",
"7X c #E1DFDC",
"8X c #FBF8F6",
/* pixels */
"}.}.}.}.}. X X X X X X X3.:._ O.9.}.XX}.}.}.}.}.}.}.{.{.{.{.{.{.}.}.}.}.}.}.}.}.}.}.{.{.{.{.{.}.}.}.}.}.}.>.=.O.O.].}.}.}.}.}.}.",
"3.3.9.9.9.].].].].9.].9.1.-._ ] 3.9.9.9.9.9.3.3.3.3.1.1.1.1.1.3.3.3.3.4.3.3.3.3.3.3.3.3.3.3.3.3.3.3.3.3.3.=.O._ ] 1.3.3.3.3.3.3.",
":.:.:.>.>.1.1.>.>.>.>.>.=.$._ ' -.>.1.1.1.1.>.:.-.=.=.=.=.=.=.=.O.O.O.O.O.O.O.O.=.=.=.=.-.-.-.-.-.:.-.-.-.O.' _ ' -.-.:.:.:.:.:.",
"_ _ _ _ ' ' ' ' ] ] ] ' _ ) ) _ ' ] ] O.O.O.] _ _ ) ) ) ) U U r k k k k k g s 3 H I W _ ` ` _ _ _ _ _ _ _ ) ) ) _ _ _ ` ` _ _ _ ",
"-.-.-.=.-.:.:.:.>.>.:.-.*.O._ ' =.;.>.>.>.>.>.-.-.=.=.` T h g a.Q.^.^.^.^.Q.b.V y t T ` -.-.-.-.-.-.-.=.=.] ` _ ] -.-.-.-.-.-.-.",
"3.3.3.1.3.8.8.9.9.9.9.8.:.=._ ] >.8.9.9.9.9.8.8.8.8.=.r j k.N.!.!.!.!.!.~.~.V.N.M.j.p 3 $.8.8.3.3.3.3.1.>.$.] ] O.1.3.8.3.3.3.3.",
"].].].].}.}.}.}.}.}. X X3.:.' O.8.]. X}.}.}.}.}. X1.r V M.V.~.~.~.~.~.~.!.!.!.!.!.!.n.d.z 1.}.].].].].].].:.*.O.O.].}.}.}.}.}.}.",
" X X X X X X XXXXXXXXXXX3.:.] +.9.}. X X}. X XXX3.r l v.V.V.~.~.~.~.~.!.!.!.!.!.~.~.!.n.a.^ 3. X X X X X}.>.=.O.O.]. XXX X X X X",
" X XXXXX X X X X X XXX}.3.:.' +.9.]. X X X}.}.:./ V f.p.p.l.n.m.N.~.~.V.!.~.~.~.~.~.!.n.j.p )  X X X X X}.1.=.O.O.]. XXX X X X X",
"XXXX X X X X X X X X X}.3.:.] *.9.]. X X X X}.H s.~.V.z.x.v.x.i.i.x.n.V.~.~.~.~.~.~.N.v.h.a ^ 1. X X X X X1.=.O.O.]. X X X X X X",
" X X X X XXXXX X X X X}.1.-.] *.9.}. X X X X}.H d.~.c.z.~.~.n.g.j.h.y.j.x.M.!.!.!.~.c.z.p.e.y W  X X X X X1.=.O.O.]. X X X}. X X",
" XXXXXXXXXXXXXXX X X X}.3.>.O.*.9.}. X X X X}.H d.~.z.z.V.B.z.j.m.z.y.j.j.j.v.v.N.M.x.j.i.r.u W  X X}.}. X1.=.O.O.]. X X X}. X X",
" XXXXXXXXXXXXXXXXX X X}.3.>.O.*.9.}. X X X X}.I d.V.h.p.B.B.z.j.b.i.j.N.v.x.x.g.u.p.g.y.t.t.u (  X}.{.}. X1.=.O.O.]. X X X X X X",
"XXXXXXXXXXXXXXXXXX X X}.1.-.] $.9.}. X X X XXXO.C a.a w.b.x.y.z.n.p.N.M.x.V.M.j.u.g.e.w.r.t.i )  X X}. X X1.=.O.O.].}. X X X X X",
"XXXXXXXXXXXXXXXXXX X X}.1.-.' O.9.}. X X X XXXXXT   . + i p q.g.z.h.V.N.z.n.x.z.N.v.q.q.w.e.i ) XX X X X}.1.=.O.O.9.}. X X X X X",
"XXXXXXXXXXXXXXXXXX X X}.1.-.' O.4.}. X XXX X XXXY C D.S.A.| + y u w.x.z.z.n.x.p.n.z.e.y.r.q.p r :. X X}.].>.=.O.O.9.}. XXXXXXXXX",
"XXXXXX XXXXXXXXXXX X X}.1.-._ O.4.]. X X X X X XU A.;X_._.).S.S.C s y p t.y.t.y.c.z.t.g.e.y.y.p W  X X}.}.>.=.O.O.9.}.XXXXXXXXXX",
"XXXX X}. XXXXXXX X X X}.1.-.` O.4.]. XXX X X X XU A.{ 3 / _.1X1X;XC s > + t + p e.r.y.p.r.p.i.a Y  X X X}.>.*.] O.9.}.XXXXXXXXXX",
"XX X X}. XXXXX X X X X}.1.-._ O.4.]. X X X X X}.U F.M 5.7X4X<X<X<XC.j < | D.| o O O p q.w.y.r.p Y  X}.}.}.>.*.] O.9.}. XXXXXXXXX",
" X X XXXXXXX X X X X X}.1.-._ O.9.].XX X X X X}.Y F.M 7.8X5X1X<X<XC.u x /.>X`.M X > > X y a p g ` }.}.}.}.>.*.] O.9.}.XXXXXXXXXX",
" X X XXXXXXX X X X X X}.1.-._ O.4.}. X X X X}.].Y F./ 7.8X5X1X1X<XD.x V ).`.`.M o d d > X . % _ }.}.}.}.}.>.*.] O.9.}. XXXXXXXXX",
" X X X XXX X X X X X X}.1.-._ O.9.]. X X X X}.)  .-X-X:X5X4X1X1X1X,XZ.Z.`.`.`.M O g d s O % Y  X X X X X}.1.*.] O.9. XXXXXXXXXXX",
"XXXX XXX X X X X X X X}.1.-._ O.9.].XX X X X XI F.4X1X1X<X1X<X1X1X<X;X;X,X,XA.< s d > < O r ].XXXX X X X}.1.=.] O.9.}.XXXXXXXXXX",
"XX X XXX X X X X X X X}.1.-._ O.9.]. X X X XXXU F.4X1X1X<X<X<X1X1X1X1X1X>XD.k s d < < > : W  XXXXX X X X}.1.=.] ] 9.}.XXXXXXXXXX",
"XX X X X X X XXX X X X}.1.-._ O.9.]. X X XXXXX=.[ X.| } /.1X<X1X1X1X1X1X`.D.C O + > O X 8 4. X X X X X X{.1.=.] O.9.}.XXXXXXXXXX",
" X X X}.}. X X X X X X}.1.-._ O.9.}.XXXXXXXXXXXX$.% z { /.1X1X1X1X1X1X>X).G.C.  . .     $ o. X X X}. X X{.1.=.O.O.9.}.XXXXXX XXX",
"XX X X X X X X X X X X}.>.=.) ( T ( _ ` 1.XX X X}.O.} `.>X>X>X>X>X>X/.A.k z P 5 5 5 7 7 - 5 O. X X X X}.{.1.=.O.O.9.}. XXXXXXXXX",
" X X X X X X X X X X X{.>.=.Y 2 m m m m T 1.XX X X}._ } | | | | | | 9 6 - 7 D K K L L L D = Y  X X X X{.{.1.-.O.O.9.}. XXX X XXX",
" X X X X X X X X X X}.{.>.` v K.U.U.U.T.L.R 1. X X X].` _ ` 5 @ = 5 7 L L G D A D D D A A = Y  X X X X X X1.-.O.O.9.}. X X X XXX",
" X X X X X X X X X X}.{.=.q P.E...q q H.E.K.v 3. X XXXXXXX:.7 Z S 5 7 = $ = = 7 7 7 A A - 5 O.}.{. X X X X1.-.O.O.].}. X X XXXXX",
"XXXXXXXX X X X X X X X}.O.1 E.J.q =.$.q P.U.2 1.XX X XXX=.S G G = $ A D A A A A - * 7 A * H  X X}. X X X X1.=.O.O.4.{. X X X XXX",
"XXXXXX X X X X XXX X X}.O.1 W.K.0 3.<.2 K.U.2 1.XX X XXXO.- G 5 7 G L L L L F D D 7 $ = * W  X X X X X X X1.=.] O.4.{. X X X X X",
"XXXXXX}. XXXXXXXXX X}.}.$.1 Y.T...0 q J.I.H.q 3.XXXXXXXXO.= 5 A E E E L L L G D F D - $ W ]. X X X X X X}.1.=.] ] 4.{. X X X X X",
" X X X X XXXXXXXXX X X}.-.I b T.E.K.J.P.n & Q >.1.1.1.3.` * D E E E E E L L D A F D Z 5 ]. X X X X X X X}.>.=.' ' 4.{. X X X X X",
" X X XXXXXXXXXXXXX X X}.1.=.w b J.H.n : M / ; ; 5 5 * = 7 G E E E E E E G D A A G G 7 5 9. X X X XXX X X}.:.$._ ' 4.}. X X X X X",
" X X XXXXXXXXXXX X X X}.1.-.( : 3 X.X.X.-X(.; D E L G G L E L E E E E L D - = A L G 7 4 3. X X X XXX X X}.:.$.` ' 4.{. X X X X X",
" X X XXXXXXXXX X X X X}.1.=.` H z /.(.,X1X(.5 K E E E L L L L L E E L D A * - F E G 7 ; 3. X X X XXX X X}.:.$.` ' 3.]. X XXX XXX",
" X X XXXXXXX X X X X X}.>.=.` H 3 A.F.,X4X(.4 F E E L L L L L L L G D A - - D L E G 7 * 3. X X X XXX X X}.:.O._ ' 3.].{. X X X X",
"XXXXXXXXXX X X X X X X}.>.=.` H h G./.,X4X(.4 D E L L E L L L K D A 7 = 5 F L E E G - * 3. XXXXXXXXX X X}.:.$.` _ 3.].].}. X X X",
"XXXXXXXXXX X X X X X X].:.=._ H 3 C.A.;X<X(.* 7 D D F F F D D A 7 - * 7 F L E E E G 5 * 3. XXXXXXXXXXXXX X>.*.` ` 3.{. X X X X X",
"].].].].].].].].].].].8.-.$.` Y z S.S.S.D.X.# = 7 7 7 7 7 7 - - @ $ 7 D L E E E E G 5 * :.4.].].].].].].].-.O._ _ 1.3.].].].].].",
"=.=.=.=.=.=.=.=.=.=.=.=.] ' &.OX~ & 1 o w T 0 6 8 8 8 8 5 $ * $ = Z A L E E E E E G 7 * ' =.=.=.=.=.=.=.=.] _ ( ( ] O.=.=.=.=.=.",
"O.O.O.O.O.O.O.O.O.O.O.O._ O.OX@X~ n I.c ,.%X*.O.O.O.O.O.( $ A A F F L L E E E E L D Z * ` O.O.O.O.O.*.$.O._ ) ( ) _ ' O.O.O.O.O.",
"' ' ' ' ' ' ' _ _ _ _ _ ( O.$X,.b E.E.b R.%XO.' O.] ' ' T $ Z A F L L L L L L F D A 5 ; ) ' ` _ ` _ ] ] _ _ ) ) ) _ _ _ ' ] _ _ ",
":.>.>.>.>.>.>.>.>.-.:.-.*.-.$XOX! b n ! @X%X1.>.1.>.:.:.` # - A A A A A A A Z Z A Z = _ 1.:.:.-.-.-.:.:.:.=.O._ _ =.-.:.>.>.:.:.",
"{.}.}.}.}.}.}.}.}.].}.{.1.:.[.%XOXQ Q OX*X+X}.}.}.}.{.{.4.O.5 $ * $ $ # # # # # $ $ _ {.}.}.{.{.{.{.{.{.{.1.=.' ] 3.].}.}.}.}.}.",
"}.}.}.XXXXXXXX}.}.}. X}.1.-.` [.&X&X&X&X#X X X X X X}.}.}.}.e , h f h s s s s s > # $. X}.}.}.{.{.{.}.}.}.1.=.] ] 9.}.}.}.}.}.}.",
" X XXXXXXXXXXXXXXXXX X}.1.-._ $.{. X X X X XXXXXXXXXXX X XXX:.6 < l l l l k k f > w <. X X X X X}.}.}.}.}.1.=.O.O.9.}. XXXXXXXXX",
"XXXXXXXXXXXXXXXXXXXX X}.1.-._ O.4.{. X X X XXXXXXXXXXX XXXXX].: . g B B N k k > H 4.{. X X X X X X X X X}.>.=.O.O.9.}. X X X X X",
"XXXXXXXXXXXXXXXXXXXX X}.1.-._ O.4.{. X X XXXXXXXXXXXXXXXXX X4.;   f B B N k k > U {.{. X X X X X X X X X}.1.=.O.O.4.{. X X X X X",
"XXXXXXXXXXXXXXXXXXXX X}.1.-._ O.4.{. X XXXXXXXXXXXXXXX X X}.4.;   f B B N k k , Y {.}.}. X X X X X X X X}.1.=.O.O.4.{. X X X X X",
" X XXXXXXXXXXXXXXXXX X}.1.-.' O.3.]. XXXXXXX X XXXXXXX X X}.4.;   f B B N k k , Y }.{.}.}. X X X X X X X}.1.=.O.O.4.{. X X X X X",
" X X XXXXXXXXXXXXXXX X{.1.-.' O.4.].XXXXXXXX X X X X X XXXXX9.4   f B B N k k , Y  X}.}.}.}. X X X X X X}.1.=.] O.4.{. X X X X X",
" X X XXXXXXXXXXXXXXX X}.1.-.' O.9.}.XXXXXXXX X XXX X X].4.4.O.w % h N k f < < > U '.{. X X X}.}. X X X X}.1.=.O.O.4.{. X}.}. X X",
" X X XXXXXXXXXXXXXXXXX}.1.-.' O.9.}.XXXXXXXXXX}.4.4.3.&.o.Y J r : [ 6.9 ; 6 6 ; H -.<.4.3.4.}.{.}. X X X}.1.=.O.O.4.{.}.}.}. X X",
" X X X X XXXXXXXXXXX X}.1.-._ O.9.}.XXXXXX X].<.%.%.%.%.Q 6 #.^ 7.=XoX5.[ [ [ r e -.&.%.%.%.<.4. X X X X}.1.=.O.O.4.{.{.{.{. X X",
" X X X X XXXXXXXXXXX X{.1.:.' +.9.}.XXXXXX4.-.%.%.%.%.%.Q # 9 [ 3X6X=X7.@.5.5.r w &.&.&.%.%.%.-.]. X X X}.1.=.O.O.9.{.{. X}. X X",
" X X XXXXXXXXXXXXXXX X{.1.-.] *.9.}. XXXXX3.%.%.%.%.%.%.o.U 0 6 ^ ^ ^ H 6 9 9 # w %.%.%.%.%.%.%.]. X X X}.1.=.O.O.9.{.}. X XXX X",
" X X XXXXXXXXXXXXXXX X}.1.:.] *.9.}. XXXXX}.3.-.&.%.%.%.%.&.o.U I I U Y Y U U U Q %.%.%.%.%.:.4.}. X X X}.1.-.O.$.9.}. X X X X X",
"XXXXXXXXXXXXXXXXXX X X}.1.-.' +.9.{.}.}. X X}.].].<.:.:.&.%.%.%.%.%.%.&.&.&.%.%.%.%.-.3.4.4.].XXXX X}.}.}.1.-.O.$.].}.XX X X X X",
"XXXXXXXXXXXXXXXXXX X X}.1.-.' +.9.{.}.}.}.}. X X X X}.}.].4.3.3.3.3.3.3.3.3.3.3.3.3.4.{. XXXXXXXXX X X}.}.1.-.O.O.9.}. X X X X X",
"XXXXXXXXXXXXXXXXXX X X}.1.-.' O.9.{.}. X X X X X X X X XXXXX X X X X X X X X XXXXX X}.{.{. X X X X X X X}.1.=.] O.4.{. X X X X X",
"XXXXXXXXXXXXXXXX X X X}.1.-.] O.9.{.}. X X X X X X X X XXXXX X X X X X X X X XXXXXXX X}. X X X X X X X X}.1.=.] O.4.{. XXXXXXXXX",
"XXXX X X X X XXXXX X X}.1.-.] O.9.{. X XXXXXXXXXXXXXXXXXXXXXXXXX X X X X X X X XXXXXXX X X X X X X X X X}.1.=.O.O.9.}. X XXX XXX"
};
