/* XPM */
static char *a6dcc20325b24d26ab27f79c29d5fa4b[] = {
/* columns rows colors chars-per-pixel */
"64 64 219 2 ",
"   c #18151D",
".  c #241C1C",
"X  c #1A291D",
"o  c #2A221E",
"O  c #3B251B",
"+  c #3B261C",
"@  c #161A24",
"#  c #1A1B24",
"$  c #171F2D",
"%  c #1A1E2A",
"&  c #241F23",
"*  c #1B2427",
"=  c #1A222C",
"-  c #1C2432",
";  c #1F2836",
":  c #1E2A3B",
">  c #252225",
",  c #2B2324",
"<  c #23242B",
"1  c #29282A",
"2  c #2D2A2C",
"3  c #332623",
"4  c #382A28",
"5  c #25392B",
"6  c #39312D",
"7  c #222733",
"8  c #252C34",
"9  c #2A2D33",
"0  c #222D3C",
"q  c #292E3A",
"w  c #352F32",
"e  c #2B323B",
"r  c #29333C",
"t  c #3B3334",
"y  c #38363A",
"u  c #43291D",
"i  c #542C18",
"p  c #6B371C",
"a  c #452E22",
"s  c #4D3324",
"d  c #45342C",
"f  c #563927",
"g  c #433533",
"h  c #443A35",
"j  c #483A36",
"k  c #653E26",
"l  c #284A2C",
"z  c #2E4A34",
"x  c #2E5635",
"c  c #325435",
"v  c #3A6736",
"b  c #3A793E",
"n  c #4D413C",
"m  c #52423B",
"M  c #5A443A",
"N  c #684126",
"B  c #664229",
"V  c #6A4329",
"C  c #794626",
"Z  c #6E4D3B",
"A  c #45793D",
"S  c #1F2F42",
"D  c #232F41",
"F  c #243344",
"G  c #2C3843",
"H  c #243648",
"J  c #263A4C",
"K  c #293B4D",
"L  c #353D44",
"P  c #263B51",
"I  c #293E52",
"U  c #2B4B4E",
"Y  c #36434C",
"T  c #3B444A",
"R  c #2B4255",
"E  c #3C4B52",
"W  c #3E5257",
"Q  c #3B6C4E",
"!  c #385C67",
"~  c #3A6662",
"^  c #47484A",
"/  c #554841",
"(  c #58544F",
")  c #444E53",
"_  c #4C4C51",
"`  c #455157",
"'  c #46545A",
"]  c #49555B",
"[  c #45595E",
"{  c #4B595E",
"}  c #555557",
"|  c #675047",
" . c #6E5144",
".. c #775647",
"X. c #775E52",
"o. c #497942",
"O. c #4B6B5E",
"+. c #796154",
"@. c #465C62",
"#. c #4D5C62",
"$. c #515E64",
"%. c #466064",
"&. c #4C6266",
"*. c #4D6569",
"=. c #4F686B",
"-. c #516167",
";. c #53656A",
":. c #55696E",
">. c #566C71",
",. c #596D72",
"<. c #427972",
"1. c #567275",
"2. c #5B7176",
"3. c #5D7579",
"4. c #5E787C",
"5. c #666769",
"6. c #60777C",
"7. c #61797E",
"8. c #7A7B7C",
"9. c #954B1F",
"0. c #9A4B1D",
"q. c #A74F1D",
"w. c #AA551F",
"e. c #894721",
"r. c #9A4C21",
"t. c #9C5122",
"y. c #A35423",
"u. c #A95521",
"i. c #AE5A22",
"p. c #B45D23",
"a. c #B65C23",
"s. c #BD6425",
"d. c #B96329",
"f. c #B76C31",
"g. c #C46928",
"h. c #CB6C2A",
"j. c #CD6F2F",
"k. c #D2732C",
"l. c #DB772D",
"z. c #D87930",
"x. c #E27C2F",
"c. c #E37E32",
"v. c #805B4B",
"b. c #835F50",
"n. c #8E634E",
"m. c #886757",
"M. c #936A53",
"N. c #976C57",
"B. c #8D705E",
"V. c #9D7055",
"C. c #A37157",
"Z. c #8A7160",
"A. c #967A68",
"S. c #A97C64",
"D. c #41873D",
"F. c #3E8F42",
"G. c #488E48",
"H. c #519548",
"J. c #59A94D",
"K. c #4FA150",
"L. c #5AB855",
"P. c #65B956",
"I. c #4C8478",
"U. c #5C8974",
"Y. c #608476",
"T. c #5AC259",
"R. c #6BC45D",
"E. c #64C360",
"W. c #E58233",
"Q. c #E88232",
"!. c #E98334",
"~. c #EA8536",
"^. c #EB8838",
"/. c #B58769",
"(. c #AC8B73",
"). c #B18C73",
"_. c #B68D74",
"`. c #C38C6A",
"'. c #C7906F",
"]. c #C39376",
"[. c #CB9677",
"{. c #D49B7A",
"}. c #D8A17D",
"|. c #4F7B81",
" X c #637E83",
".X c #7E7F80",
"XX c #478A89",
"oX c #4D928A",
"OX c #658185",
"+X c #658388",
"@X c #678388",
"#X c #678488",
"$X c #67858A",
"%X c #68858A",
"&X c #69888C",
"*X c #57A89A",
"=X c #61B4A8",
"-X c #828384",
";X c #9E9F9E",
":X c #AEAEAD",
">X c #B7B7B6",
",X c #C39B81",
"<X c #DCA584",
"1X c #D6AB8D",
"2X c #DEAD8B",
"3X c #E5AC85",
"4X c #E3AE8B",
"5X c #E9B38C",
"6X c #F0B58D",
"7X c #E8B692",
"8X c #EEBA95",
"9X c #EEBD9A",
"0X c #F0BB95",
"qX c #F1BE99",
"wX c #F2C19C",
"eX c #EAC8AE",
"rX c #F4D2B9",
"tX c #D5D4D0",
"yX c #E9E8E4",
/* pixels */
"%X%X%X%X%X%X$X%X%X3.>.' #.4.OX$X$X$X$X%X%X$X$X$X$X$X$X%X$X$X%X%X%X$X$X$X$X@X$X$X$X$X$X$X$X$X$X$X@X$X3.;.#.{ 4.OX@X@X@X@X$X$X$X$X",
"%X%X%X%X%X%X%X%X%X3.>.] #.4.OX$X$X$X$X$X$X$X$X$X$X$X$X%X%X$X$X$X$X$X$X@X@X@X@X$X$X$X$X$X$X$X$X$X@X@X3.;.#.{ 4.@XOXOX@X@X@X$X$X$X",
"&X$X%X$X%X%X%X%X%X2.>.' { 7.OX$XOX$X$X$X$X$X$X$X$X$X$X%X%X%X%X%X%X$X$X$X@X@X@X$X$X$X$X$X$X$X$X$X@X@X3.;.#.#.4.OX@X@X@X@X@X@X@X$X",
"&X$X%X%X%X%X%X%X%X3.>.] #.7.OX$X$X$X$X$X$X$X$X$X$X$X%X&X>.[ [ [ [ [ [ #.OX%X@X$X$X$X$X$X$X$X@X@X@X@X3.;.#.#.4.OX$X$X@X@X$X$X@X@X",
"$X%X&X&X&X%X%X&X%X4.,.] #.7.@X%X%X%X$X$X$X$X$X$X$X$X:.@.M V V N k k k f ` :.%X%X$X$X$X$X@X@X@X@X@X@X3.;.#.{ 4.@X$X$XOX$X$X$X@X@X",
"OXOX$X$X$X$X$X%X$X3.,.] #.7. XOXOXOXOXOXOX X X X4.{ f C f.^.!.!.Q.Q.Q.j.C m @. XOX X X X X X X X X X2.-.#.{ 3. XOXOX XOXOXOXOX X",
"7.7. X X X X X7.7.2.:.] { 2.6.7.7.7.7.7.6.3.2.,.) f d.~.^.!.!.!.!.Q.Q.Q.Q.d.B ' 2.2.2.2.2.2.2.2.2.3.;.{ ] ] ,.3.3.3.3.3.3.3.3.3.",
":.>.,.,.,.,.,.,.,.;.-.] ] ;.:.,.,.,.,.,.,.>.:.) k g.x.Q.!.!.!.!.!.!.Q.Q.!.W.g.B ) -.-.-.;.;.:.:.:.;.#.] ] ] ;.:.:.:.:.:.:.:.:.:.",
"] ] { { { #.#.#.#.] ] ] ] ] ] { { { { { { { ^ Z g.l.Q.!.!.!.!.!.!.!.!.!.!.W.l.s.s L ) ` ] ] ] ] ] ` ` ) ` ' ] ] ] ] ] { ] ] ' ] ",
":.:.,.2.2.2.2.2.2.:.;.] #.:.>.,.,.,.,.,.,.-.6 j.j.h.k.k.k.k.k.k.z.z.z.z.z.k.g.g.t.6 ;.:.,.,.,.,.>.:.#.] ] ] :.,.,.,.,.,.,.,.,.,.",
"3.3.7.7.7.7.7. X7.2.:.{ $.2.6.7.7.6.6.6.6.T k s.p.w.i.p.p.i.d.s.g.s.p.g.s.w.0.q.q.k ) 6.6.6.6.3.3.2.:.#.{ { ,.3.6.6.6.6.7.7.6.6.",
"OXOXOXOXOX@X@X%X@X3.,.{ $.7. XOXOXOXOX X{ 4 r.a.j.s.h.W.l.p.k.c.!.k.s.!.W.g.p.h.i.e.t ,. XOX X XOXOX2.;.#.{ 3.OXOXOXOXOX@XOXOXOX",
"%X%X%X%X%X%X%X%X@X4.,.{ $.7.OX%X$X@X@X7.2 p a.h.c.h.k.!.c.a.k.c.W.k.d.W.W.h.s.l.h.p.C y  XOXOXOX@X%X3.;.#.#.4.@X@X%X@X@X$X%X%X$X",
"%X%X%X%X%X$X@X@XOX3.,.] #.7.OX%X%X%X X^ C u.q.k.c.h.k.^.!.s.k.c.c.k.p.x.Q.h.g.x.k.u.y.V T 4.OXOX@X%X3.;.#.#.7.@X@X@X@X@X@X$X$X$X",
"%X%X%X%X%X%X@X@XOX2.>.] #.4.OX%X%X%X Xw u.w.0.h.h.p.d.h.g.u.p.s.s.i.0.s.g.p.w.h.h.q.i.t.2 2.@X@X%X%X3.;.#.#.7.@X@X@X@X@X@X$X$X$X",
"%X%X%X%X%X%X@X@XOX2.>.#.-.7.OX%X%X%XOXy u.i.0.u.e.u a a a a u + + O O + u u u e.i.9.i.t.2 4.$X%X%X%X3.;.#.#.7.@X@X@XOX@X%X$X$X%X",
"%X%X%X%X%X%X@X@XOX2.>.#.-.7.OX%X%X%XOXy 9.0.p u f n.N.N.N.N.M.n.n.n.n.M.N.N.n.s + i t.e.2 7.%X@XOX@X2.;.#.#.7.@X@X@XOX@X%X%X$X%X",
"%X%X%X%X%X%X@X@XOX2.>.{ -.7.OX%X%X%X@X] 4 O . Z /.3X4X2X2X4X3X3X3X5X4X2X2X2X4XS. .. O 4 T  X$XOXOXOX2.;.#.#.4.@X$X%X%X%X%X%X%X%X",
"%X%X%X%X%X%X@X@XOX2.:.] #.7.OX%X%X%X%X7.7 & > C.0X(./ g j ].0X0X0XwX(.j h / (.6X/.. . 2 7.%X$X@XOXOX2.;.#.#.4.OX@X%X%X%X%X%X%X%X",
"%X%X%X%X%X%X@X@XOX2.:.] #.7.OX%X%X@X%X,.h N.d V.7XeX>X1 g 4X0X0X0XqX2Xj y tXeX6X/.4 M.m &.$X@X@XOXOX2.;.#.#.4.OX$X$X$X%X%X%X%X%X",
"%X%X%X%X%X%X%X@XOX2.:.{ #.7.OX%X%X@X%X>.m '.j V.8XrXyXw n 8XqXqXqXqX9Xm y yXrX6X/.d `. .@.$XOX@XOXOX2.;.#.#.4.OX$X$X$X%X%X%X%X%X",
"@X@X@X%X%X%X@X@XOX2.:.] #.7.OX%X%X@X%X>.m '.g V.8XrXtX9 n 7XqXqXqXqX8Xn y yXrX0X/.d `. .] $XOXOXOXOX2.-.#.{ 4.OX$X$X$X$X%X%X%X%X",
"OX@X%X%X%X%X@X@XOX2.:.] #.7.OX%X@X@X@X4.} m. ./.8XeXeXZ.A.9XwXqX0X0X8XA.A.rXeX0X]...M.( :.OXOXOX@X@X2.-.#.{ 4.OX$X$X$X$X%X%X%X%X",
"@X@X%X%X%X%X@X@XOX2.:.] #.7.OX%X@X@XOX$X:.g V.<X9X9X8X0XwXwX7X'.'.4X0XqXwXqX8X8X}.V.M ' OXOXOX@X@X$X2.-.#.{ 4.OXOX$X$X$X%X%X%X%X",
"%X%X%X@X%X%X@XOXOX2.:.' #.7.OX%X@X$XOX$X,.y Z [.9X9X8X8X9XqX8X<X}.7XqXqX9X9X9X9X`.M t #.$X@X@X@X@X$X2.-.#.{ 4.OX$X$X$X%X%X%X%X%X",
"%X%X%X%X%X%X@XOXOX2.:.' #.7.OX%X$X$X@XOXOX>.9 m.7X9X8X8X8X7X2X2X2X4X7XqX9X9X9X7XX.1 [ OX$X@X@X@X$X$X2.-.#.{ 4.OX$X$X%X%X%X%X%X%X",
"%X%X%X%X%X%X@X@XOX2.:.` #.7.OX%X%X@X@XOX@X%X@.t ].8X0X0X8XX.t g g j B.qXqXqX8X/.t :.OX$X$X$X@X@X$X$X2.-.#.{ 4.OX$X$X%X%X%X%X%X%X",
"%X$X$X$X%X%X@X@XOX2.:.` #.7.OX%X%X@XOXOX@X3.e % M '.<X8X8X,X)._._._.1XqX9X<X].n % Y  X$X$X$X$X$X$X$X3.;.#.{ 4.OX$X%X%X%X%X%X%X%X",
"$X$X$X$X%X%X@X@XOX2.:.` #.7.OX%X%X@XOXOXOX' ; F q t  .].[.[.[.{.{.{.[.'.`.| y r H ; #.$X$X$X$X$X@X$X3.;.#.{ 4.OX$X%X@X%X%X%X%X%X",
"OXOX$X$X%X@X@X@XOX2.:.' #.7.OX%X%X@X@X@X3.G ; F F 0 e t 4 4 4 4 4 d g 4 w ; H K K ; Y OX$X$X$X$X$X@X3.;.#.{ 4.OX$X%X@X%X%X%X%X%X",
"OXOX$X$X$X@XOX@XOX2.:.] #.7.OX%X%X@X$X%X*.# - @ % - D - z o.o.A v t m - F F F F ; @ 7 4.$X$X@X$X$X@X3.;.#.{ 4.OX@X@X@X%X%X%X%X%X",
"$X$X$X$X$X$X@XOXOX2.:.] #.7.OX%X%X%X%X XY 7 7 - - % # c P.P.J.J.P.o.1 0 0 % % ; ; ; % Y OX$X$X@XOXOX3.;.#.{ 4.OX$X%X%X%X%X%X%X%X",
"@X$X$X$X$X$X@XOXOX,.:.' #.7.OX%X%X%X%X' 7 K K K J 7 l L.J.l * 5 H.R.o.# = = 0 J J K 0 8  X$X@XOX@X$X3.;.#.{ 4.OX@X%X%X%X%X%X%X%X",
"$X$X$X$X$X$X$XOXOX,.;.` #.7.OX$X@X@XOXG F R R I I 0 c E.o.* e 7 z R.H.* J K I I I R I 0 @.OX@XOX@X@X3.;.#.{ 4.OX@X%X%X%X%X%X$X%X",
"$X$X$X$X$X$X@XOXOX,.;.` #.7.OX@X@X@X4.r J R R R K ; c T.G.* q 7 c R.H.* I I I I I R R F q  X@XOXOX@X2.;.#.{ 3.OX$X%X%X%X%X%X$X$X",
"$X%X%X%X%X%X@X@XOX2.:.] #.7.OXOXOXOXY 0 I R I K 0 % 5 D.L.G.l c J.P.v = I I I I 0 K R H 8 OX@XOXOXOX2.-.@.] 2.OX@X$X%X%X%X$X$X@X",
"@X@X%X%X%X%X$X@XOX2.:.] #.7.OX@XOXOXG : I I J - % #   X v J.P.R.P.A * F I I I K - F R H 8 =. XOXOXOX2.;.@.' 2.OX$X$X%X%X%X$X$X$X",
"@X@X%X%X%X%X$X@XOX2.:.] #.7.OX@XOXOXL : I I I I F % w m > x Q o.v * 0 I I I I I - 0 I K 0 % =.@XOXOX3.;.{ ' 2.OX$X$X$X$X$X$X$X$X",
"$X%X%X%X%X%X$X@XOX2.:.] #.7. X@XOXOXL : I I I I D $ +.4XA.m.m.X.> ; J I I I I I - 0 I I H @ *.$X$X$X2.;.{ ' 2.OX@X$X$X$X$X$X$X%X",
"$X%X%X%X%X%X$X$XOX2.:.] #.7. X@XOXOXL : I I I I : - X.7X8X[.S.B.1 F F J I I I I - 0 I R H % =.$XOX$X2.-.{ ' 3.OX@X$X$X$X$X$X%X%X",
"%X%X%X%X%X$X@X@XOX2.:.' #.7. X@XOXOXY ; H P P J ; = X.8X8X[.C.M.> H I I I I I I - 0 R R H % =.$XOX@X2.-.{ ] 2. XOX$X$X$X$X%X%X%X",
"%X%X%X%X%X$X@X@XOX2.:.` #.7. X@X@X%X;.8 : F F S = @ X.9X8X].M.v.# : H H H J I I - 0 I J : % *.@XOXOX2.-.{ ] 2.7.OX$X$X$X%X%X%X%X",
"%X%X%X%X%X%X@X@XOX2.:.` #.7. X@X@X%X%X@.- - - ; =   X.5X7X[.S.n.  : J J H H I J $ - : : w t *.@XOXOX2.-.{ ' 2.4. XOX$X$X$X$X$X%X",
"%X%X%X%X%X@X@X@XOX,.:.` #.7.OX%X%X%X%XOX@.Y # @ @   g ..b.b.n.| * U I I J F K J % g / | _.M $.@XOXOX2.-.{ ` 2. XOX@X$X$X$X@X@X$X",
"%X%X%X%X%X$X@X@XOX>.;.` @.7.OX%X%X%X%X@X@X XY @ - ; G ~ q c x @ ~ XXR I I H F F < S._.<X<XM #.$X$X$X2.;.{ ' 2.OX$X$X$X$X$X$X$X$X",
"2.2.2.2.2.2.2.2.,.#.@.) ] :.2.3.2.2.2.2.,.,.E % F F ! =XY K.L.b U oX|.I I K D : < N.M ].<XM ` 2.2.2.;.{ ] ` ;.>.2.2.2.2.2.2.2.2.",
"-.;.-.-.-.-.-.-.#.' ` ) ` #.-.-.-.-.-.&.#.-.Y @ 7 D ! *XG K.T.F.* XXXXF F F 0 -    .V.{.{.M E ;.-.&.{ ' ` ` { #.&.-.-.-.-.-.-.-.",
"#.#.#.#.#.#.{ { ] ) ) ) ` ] { #.{ { { { @.#.` e # % U *X~ x l z ~ *X<.= = # # # 1 4 /.`...h ` #.@.{ ] ` ` ` ] ] ] { #.{ #.#.#.#.",
"{ { { { { ] ] ] ] ) ) ) ` ] { ] ] ] ] ] { #.$.E > a 6 %.*X<.~ I.=XoXe     + + & T w j j y ` #.#.{ ' ` ` ` ` ] ] ] ] { ] { #.#.#.",
"4.4.4.4.4.3.3.4.3.:.-.' { 2.4.7.4.3.3.4.4.4.7.{ , f f d O.U.U.U.Y.( f s s s a & &.>.=.=.1.4.4.4.3.2.:.-.#.] ,.3.3.4.4.4.4.4.4.4.",
"OXOXOXOXOXOXOXOXOX2.:.' #.7.OXOXOXOXOXOXOXOXOX#.3 B B f s a o o , 3 s f B k f > =.OXOXOXOXOXOXOXOXOX2.;.#.{ 3. XOXOXOXOXOXOXOXOX",
"%X%X@X@X@X@X@X@X@X2.:.] #.7.OXOXOXOX@X@X@X@X%X#.3 V B B f a < ` E & s B V V B , :.OXOXOXOXOXOXOXOXOX3.:.#.{ 3.OX$X%X%X%X%X%X%X%X",
"%X%X%X%X%X@X@X@XOX2.:.' #.4. XOX@X$X%X%X@X@X%X#.3 B B B B s 9  X1.> f V V V B , >.$XOXOXOXOXOX@X@X@X3.;.#.{ 4.OX$X%X%X%X%X%X%X%X",
"%X%X%X%X%X@X@X%XOX2.:.` @.3. XOX$X@X@X%X%X@X%X@.3 B V B B s 9 7.>.& s B V V B 2 >.$XOXOX@X@X@X@X@X$X3.;.#.{ 4.OX$X%X%X%X%X%X%X%X",
"%X%X%X%X%X%X@X%XOX2.:.` #.3. X@X@X@X@X%X$X@X%X@.3 B B B B s q 7.>.& s B B V B 2 >.$XOXOXOX@X@X@X@X$X3.;.#.{ 4.OX$X%X%X%X%X%X%X%X",
"%X%X%X%X%X%X@X@XOX2.:.` @.4. X$X@X@X@X$X$X$X%X#., m / / M s 9 3.:.& s m / / m 1 >.$XOX@X@X@X@X@X@X@X3.;.#.{ 4.OX$X%X%X%X%X%X%X%X",
"%X%X%X%X%X%X%X@XOX2.:.] #.4.OX@X@X@X@X$XOX$X XE 1 } 8.-X} 2 7 @.' # 4 5.-X8.( < [  X@X@X@X$XOX@X@X@X3.;.#.@.4.OX$X%X%X%X%X$X%X%X",
"%X%X%X%X%X%X%X@XOX2.>.] #.4.OX@X@X@XOXOX2.1.@.e 5.8.-X8.5._ q @.W < _ 5.8..X5.} q %.2.4.OX$XOXOX@X@X3.;.#.#.4.OX$X$X$X%X%X%X%X%X",
"%X%X%X%X%X%X%X@XOX2.:.] $.7.OX@X@XOX2.:.*.&.W L :X>X:X8.5._ q @.' < _ 5.8.:X:X;Xy ' =.=.1.4.OXOX@X@X3.;.#.@.4.OX$X@X@X$X%X%X%X%X",
"%X%X%X%X%X%X%X@XOX2.:.] #.7.OX@X@X2.*.&.*.=.W 1 _ } _ L y 9 7 @.[ % 9 y ^ ^ ^ ^ < [ =.=.=.=.3.@X@X@X3.;.#.@.4.OX$X@X@X$X%X%X%X$X",
"$X$X%X%X%X%X%X@XOX2.:.` #.7.OX@X@X4.=.*.=.=.[ r e e q q e e L %.@.r e q 8 8 8 8 r @.=.=.=.=.2.@X@X%X3.;.#.#.4.OX$X$X$X$X$X$X$X$X",
"$X$X%X%X%X%X@X@XOX2.:.] #.7.OX@X@XOX4.>.:.=.*.=.=.=.&.&.=.=.=.=.=.=.=.=.=.=.=.=.*.%.%.*.>.4.OX%X@X@X3.:.#.#.4.OX$X$X$X$X%X%X$X$X",
"%X%X%X%X%X%X@X@XOX2.>.] #.7.OX@X@XOX$XOX X2.2.1.:.=.=.=.=.=.=.=.*.=.=.=.=.=.=.=.>.1.>.4.OX$X%X%X@X@X3.:.&.#.4.OX$X%X%X$X%X%X$X$X",
"%X%X%X%X%X%X%X@XOX2.>.] #.7.OX@X@X@X$X%X$X$X$X$X4.1.1.1.1.1.1.1.1.1.1.2.2.2.2.2.$X$X$X%X$X%X%X%X%X@X3.:.&.#.4.OX@X%X%X$X%X%X%X$X"
};
