/* XPM */
static char *e73e300b61b5478d92b44273a601722e[] = {
/* columns rows colors chars-per-pixel */
"64 64 211 2 ",
"   c #19171E",
".  c #251B1A",
"X  c #2E221E",
"o  c #38251E",
"O  c #161925",
"+  c #161A26",
"@  c #1A1A25",
"#  c #1A1E2B",
"$  c #1A1F30",
"%  c #241E23",
"&  c #1C212E",
"*  c #1F3828",
"=  c #1C2433",
"-  c #1F2937",
";  c #1E2B3C",
":  c #272629",
">  c #342421",
",  c #372B26",
"<  c #3C2A23",
"1  c #2C332B",
"2  c #222733",
"3  c #242A33",
"4  c #2C2C32",
"5  c #212C3D",
"6  c #332D32",
"7  c #2A3133",
"8  c #2C333B",
"9  c #2A3939",
"0  c #353136",
"q  c #37373A",
"w  c #33353C",
"e  c #49291B",
"r  c #582E1A",
"t  c #62331B",
"y  c #783D1C",
"u  c #422D24",
"i  c #462F27",
"p  c #4B3425",
"a  c #45312A",
"s  c #493228",
"d  c #513628",
"f  c #54392A",
"g  c #5B3D29",
"h  c #453937",
"j  c #583E35",
"k  c #673E25",
"l  c #713D20",
"z  c #2A4C2E",
"x  c #294535",
"c  c #34463A",
"v  c #365237",
"b  c #396738",
"n  c #387037",
"m  c #4E4138",
"M  c #5A4339",
"N  c #6B452B",
"B  c #6A462D",
"V  c #764829",
"C  c #6E4934",
"Z  c #45793E",
"A  c #1F2F40",
"S  c #1E3043",
"D  c #212F41",
"F  c #223245",
"G  c #243649",
"H  c #263A4D",
"J  c #323B43",
"K  c #3D3D42",
"L  c #273D51",
"P  c #293E53",
"I  c #384349",
"U  c #3C494D",
"Y  c #3A514B",
"T  c #2A4055",
"R  c #3E4C52",
"E  c #3A5355",
"W  c #366A64",
"Q  c #45484B",
"!  c #574943",
"~  c #434E53",
"^  c #4D4D50",
"/  c #455156",
"(  c #485153",
")  c #46535A",
"_  c #49565B",
"`  c #46585F",
"'  c #4B595E",
"]  c #575659",
"[  c #654D46",
"{  c #6B564A",
"}  c #7A5947",
"|  c #675852",
" . c #475961",
".. c #4D5C62",
"X. c #505E64",
"o. c #5E5D60",
"O. c #4D6166",
"+. c #4D666A",
"@. c #4E686C",
"#. c #516166",
"$. c #53666B",
"%. c #55696E",
"&. c #556D72",
"*. c #596D73",
"=. c #4A7572",
"-. c #567175",
";. c #5B7176",
":. c #5D757A",
">. c #517E7E",
",. c #5E797D",
"<. c #676768",
"1. c #61777B",
"2. c #61797E",
"3. c #797A7C",
"4. c #863D1A",
"5. c #88431C",
"6. c #94481B",
"7. c #9B4A1A",
"8. c #A64E1A",
"9. c #A3511D",
"0. c #AB521C",
"q. c #B3591F",
"w. c #B6591E",
"e. c #905127",
"r. c #AB5924",
"t. c #B55C22",
"y. c #BB5C21",
"u. c #AB642E",
"i. c #BC6224",
"p. c #B46128",
"a. c #C46525",
"s. c #C56728",
"d. c #CA6C29",
"f. c #D36F2A",
"g. c #CE702C",
"h. c #D5742C",
"j. c #DC762E",
"k. c #DE792D",
"l. c #D67831",
"z. c #DC7B33",
"x. c #E3792F",
"c. c #E37E32",
"v. c #825D4A",
"b. c #8B6B59",
"n. c #906852",
"m. c #99735B",
"M. c #AC7B5F",
"N. c #B77C5B",
"B. c #A97D63",
"V. c #B37F64",
"C. c #3E833D",
"Z. c #47813D",
"A. c #4A8643",
"S. c #519447",
"D. c #54984C",
"F. c #52A24A",
"G. c #57B94E",
"H. c #56A751",
"J. c #5BBC51",
"K. c #61BA57",
"L. c #52817E",
"P. c #66C55B",
"I. c #71CC57",
"U. c #75D164",
"Y. c #E58133",
"T. c #E68234",
"R. c #E68235",
"E. c #E88435",
"W. c #E9883A",
"Q. c #998274",
"!. c #AA836C",
"~. c #BB8767",
"^. c #C68C6A",
"/. c #CE9776",
"(. c #CC9874",
"). c #D5A17D",
"_. c #DEA47E",
"`. c #E4A67F",
"'. c #637E82",
"]. c #6B7F85",
"[. c #558D8A",
"{. c #658286",
"}. c #668389",
"|. c #678488",
" X c #67868B",
".X c #688489",
"XX c #69858A",
"oX c #6A898C",
"OX c #6B9999",
"+X c #56A29A",
"@X c #5CB5AC",
"#X c #64ADA8",
"$X c #68B7AD",
"%X c #6EC1B4",
"&X c #959595",
"*X c #BBBBBB",
"=X c #CDA285",
"-X c #DAA682",
";X c #D9A986",
":X c #E3AB84",
">X c #ECAF87",
",X c #EEB58D",
"<X c #EDB88E",
"1X c #F0B78C",
"2X c #F1B88F",
"3X c #F1BB91",
"4X c #F0BF99",
"5X c #EFDCCD",
"6X c #F9E2D0",
"7X c #DEDFE0",
"8X c #E0E2E2",
/* pixels */
"XXXXXX X XXX XXXXX:.*.' _ :.'. X X X X X X XXXXXXXXXXXXXXXXXXX X X X X X X X}. X X X X X X X X}.}.}.:.%...' :.}.{.}. X}.}. X X X",
"XXXX XXX XXXXXXXXX:.*.' _ :.'. X X X X X X X}.XXXX}.XXXXXXXXXXXX X X X X X X X X X X X X X X X}.}.}.:.%.....:.}. X X X X X X X X",
" X X X X XXXXXXXXX,.*.' _ :.'. X X X X X X X X X}.}.}.XXoXoXoXXXXXXXXXXX X}.}.}.}.}. X X X X X X}.}.:.%.....,.}.XXXX X X X X X X",
" X XXXXXXXXXXXoXoX2.;.' _ :.'.XXXXXXXXXXXX X X X}. XXX'. . . . . . . . .'.XX}.}.{.}.}. X X X X X}.}.:.%...' ,.}.XX X X X{. X X X",
"XXXXoXoXoXoXoXoXoX2.;.' _ :.'.XXXXXXXXXXXX X X XXX;.` U u k C C C V V k Q E +.XX{.{. X X X X X}.}. X:.$...' ,. X X X X X XXX X X",
"'.'.'.{.{.'.{.{.{.:.&._ ) *.2.'.2.2.2.2.2.2.2.2.' h k V p.z.W.W.W.W.W.l.V l m ) *.2.,.:.:.:.:.,.2.2.*...' _ *.2.2.2.2.2.2.2.2.2.",
":.1.2.2.2.2.2.2.2.*.%._ / %.;.1.;.;.;.;.;.;.:.' d e.l.Y.T.T.T.E.E.E.T.T.T.T.u.k Q %.*.&.&.*.*.*.;.;.$.' _ ) %.;.;.;.;.;.;.;.;.;.",
"..........#.#.#.#.' _ ) ) ' ........' ' ..X./ f p.c.T.T.T.T.T.T.T.T.T.T.T.E.E.z.V q / ) ) _ _ _ ' ' _ ) / / _ ' ' ..' ....' ' ' ",
"....#.#.#.$.$.$.#...' _ _ X.#.#.#.#.#.....~ a 9.j.E.E.T.T.T.T.T.T.T.T.T.E.T.h.h.t.e : U  . .........' ) ) ) ' ..................",
";.;.2.2.2.2.2.2.1.*.%.' _ *.:.1.2.2.1.:.;.U e w.h.E.E.T.T.T.T.T.T.T.c.h.h.g.w.w.s.r.e.M  .;.;.;.;.;.%.' _ _ %.;.:.:.1.:.;.;.:.:.",
"'.'.'.'.'.'.'.'.{.:.*...' ;.2.'.'.'.'.'.%., 4.q.a.h.E.E.E.E.T.T.k.a.t.0.i.l.h.h.s.j.x.l R '.'.'.'.'.;.#...' ;.'.'.'.'.'.'.'.'.'.",
"}.}.}. XXXXXXXXXXX2.;.X...:.'.XXXXXXXXXX&.> 6.w.y.a.T.E.E.T.d.i.q.9.a.s.i.h.T.c.y.s.z.l ) XX}.}.}. X:.%.....,.{.}.XX}.XX{.}.}.}.",
"}.}.}.}.}.{.}.XXXX2.;...' :.'.XXXXXXXXXX+.< 7.0.t.a.f.d.a.a.w.d.d.q.s.k.i.d.c.k.w.a.c.V ` oXXX}.}.}.:.$.O...:.{.XXXX}.}.}. X X X",
" X}.}.}.{.{.}.}.{.:.;...' :.'.}.{.XXXX'.w V 8.8.8.0.0.7.i.l.l.g.T.s.a.k.y.a.c.k.q.t.h.N ` oXXX}.}.}.:.$.....:.}.}.}.}.}.}. X X X",
" X X X X}. X{.}.}.:.*.X...:.'.}.{.{.XX2.6 6.0.7.6.7.p.t.i.h.l.a.T.z.s.j.t.9.t.r.t r k ! ;.XXXX}.}.}.:.$.....:.}.}.{.{.}.}. X X X",
"XXXXXX X X X}.}.XX1.*.X...:.'.XX}.{.{.;.6 5.7.8.7.7.s.h.t.s.h.a.T.z.t.r.6.t i p < h : +.oXXXXX}.}.}.:.$...' :.}.}.{.'.{. X X XXX",
"XXXXXXXX X X}.{.}.2.;.X...:.{.XX X{.'.w e 5.8.t.y.0.s.h.t.a.d.y.r.r.l u i v.^.(./.).[ ..XX}.}.{.{.{.:.$...' :.}.{.{.{.{. X X XXX",
"XXXXXXXX X X}.{.}.:.*.....:.'.XXXX X2.4 4.q.y.0.y.q.a.a.6.y 5.y o o M ~.(._.^.B.!.=X|  . X{.}.{.{.{.:.$...' :.{.{.}.}.}. X X XXX",
"XXXXXXXXXXXX X}.}.:.*.' ' :.'.XXXXXX'.4 4.q.t.8.0.6.5.y o < i > > p m.3X3X3XQ.] : b.{  . X}.}.}.{.{.:.$...' :.{.}.}.}.}. X XXXXX",
"XXXXXXXXXXXXXX X}.:.*...' :.'.XXXXXX'.6 4.8.9.y t e X . j ^.(.} p g B.4X3X3X6X7Xq b.{  .XX}.}.}.{.{.:.$...' :.{.}. X}. X XXXXXXX",
"XXXXXXXXXXXXXX X}.:.*.' ' :.'.XXXXXX{.#.d e e . . o u X n.,X>XN.g g B.3X2X3X6X8Xw b.{ `  X}.}.}.{.{.;.$...' :.{.}. X X XXXXXXXXX",
"}.}.XXXXXXXXXX X}.:.*.' _ :.'.XXXXXXXXXX` J @ X o p p > m.`.`.N.C m.-X3X3X3X5X7X! m.{ R '.{.}.}.{.{.;.#..._ :.{.{. XXXXXXXXXXXXX",
"{.{.XXXXXXXXXX X}.:.&.' _ :.'.XXXXXXXXXXoX*.% < < u p < v._.:X(.n.(.3X3X3X3X4X4X;X:X/.!  .XX X}.}.}.:.O.' _ :.{. X XXXXXXXXXXXXX",
" X XXXXXXXXXXX}.}.:.&.' _ :.'.XXXXXXXXXXXX%.% < < < p p < B.:X,X,X,X2X3X3X3X3X<X2X,X<X{  .XX X}.}.}.:.#.' _ :.{. XXXXXXXXXXXXXXX",
"XXXXXXXXXXXXXX{.}.:.&.' _ :.'.XXXXXXXXXXXX2.U % u < u u u C N.:X3X3X3X3X3X<X2X2X1X,X:X[  .XX X X X X:.#. .' :.{. XXXXXXXXXXXXXXX",
"XXXXXXXXXXXXXX{.}.:.&.' _ :.'.XXXXXXXXXX X;.U   > > > < u n.^._.3X3X3X3X3X2X<X:X).).{ ( ,.XXXXXX X X:.#. ._ :.{. XXXXXXXXXXXXXXX",
"XXXX X XXXXX X{.}.:.&.' _ :.'.XXXXXXXXXX*.2 & & = = O . > } V.).:X,X3X3X3X3X<X{ , , ( ,. X XXXXXXXXX2.#.' ) :.{.}.XXXXXXXXXXXXXX",
"XXXX X XXXXXXX}.}.:.&.' _ :.'.XXXXXX XXX%.& G H H H ; = - = h n.n.B._._._._.-X!.[ I '. X X'.U I I I I ' ' ) :.{.}.XXXXXXXXXXXXXX",
"{.{. X XXXXX}.}.}.:.*. ._ :.'.XXXXXXXXXX%.& F G H H H L T H 5 5 5 6 M M j M ! [ | '.XX X'.R b A.S.S.Z c ~ ) :.{.}.XXXXXXXXXXXXXX",
"{.{.{. XXX X}.}.}.:.*...' :.'.XXXXXXXXoX%.# A F F F F D D D F P P F - & O ) *.-.,.oXXX{./ b G.F.S.F.J.S.c U :.{. XXXXXXXXXXXXXXX",
"{.{. X X X X}.{.{.:.*...' :.'.XXXXXXXX'.J - F G G D = # = = - 5 - F G G - J 2.oXXX XXX&.v P.S.x 7 9 C.P.A.7 :.{. XXXXXXXXXXXXXXX",
"{.{. X X X X X{.{.:.*...' :.'.XXXXXXXX;.# ; F F A = O 5 F G H F = O 5 G G 5 I {.}. XXX%.v U.b J ]...* J.D.7 :.{. XXXXXXXXXXX X X",
"{. X X X X{.{. X{.;.&.' _ :.'.XXXXXXXX;.& - D - # O - G L L T L H ; & F L F J {.}.}.XX&.v I.A.Y *./ z K.D.7 ,.{. XXXXXXX X X X X",
"{. X X X{.{. X X{.;.%._ _ :.'.XXXXXX}.'.` # ; = = D F H T T T L L H 5 = G 5 J }. X XoX:.9 Z.I.D.x v H.G.b 7 ,.{. X XXXXXXXXX X X",
" X X X X X}. X X}.:.%.' _ :.'.XXXXXX}.}.*.3 # # - G F H H L L L L L H G - # 8 &.&.%.%.&.I : Z H.P.P.G.n 3 R :.{.}. X XXXXX X X X",
" X XXXXXXXXXXXXX}.:.&.' _ :.'.XXXXXX}.}.{.&.U 8 = G G F F G L L L L L L L 5 - 2 = = & @ : ! : z n n z 1 I ) ;.{.}. X X XXX X X X",
"}.{.XXXXXXXXXX X X:.&.' _ :.'.XXXXXX X}.}.}.XX .= F H F - D G L L L L L L P L L H H G = 0 =X!.m.m.b.0 ~ ' ) -.{.}. X X XXX X X X",
"}.}.XXXXXXXXXX X}.:.*.' _ :.'.XXXXXXXXXXXX X X` & F H G = = ; G L L L L L L T T L L L D q ;X3X3X3X;X! ....) -.'.}. X X X X X X X",
" XXXXXXXXXXXXX X}.:.*.' _ :.'.XXXXXXXXXX X XXX` & F H H F # & ; G L P P P L L T L L L S 0 -X,X,X<X-Xm ....) -.{.}. X X X X XXXXX",
" XXXXXXXXXXX X}.}.:.&.' _ :.'. XXXXXXX X X XXX` & F H L H 5 # & F G G L T T T L P L H ; 6 -X,X,X<X-Xm ....) -.{.}. X}. X X XXXXX",
"XXXXXXXXXXXXXX X}.:.*.' _ :.'.XXXXXXXXXX X X X` = F L L L H D = - F F G H G G G G G F = 6 -X1X,X<X(.h O...) &.'.{.}. X XXXXXXXXX",
"XXXXXXXXXXXXXX}.}.:.*.' _ :.'.XXXXXXXXXXXX X X` = F L L L L L G - $ = 5 D D D D D D 5 O : M.~.~.~.v.4 +. .) *.'.{.}. X X XXXXXXX",
"XXXXXXXXXXXXXX}.}.:.*.' _ :.'.XXXXXXXX X X XXX` = F H L P P P L G F - O O O # 2 2 2 2 2 & 6 > , 1 7 =.[. .) ;.'.{.{. X X}.XXXXXX",
"XXXXXXXXXX XXXXX}.;.&._ _ :.'.XXXXXXXXXX X XXX` # F F L P T T T T P H F F - J ,.,.,.,.:.{.+X3 A.H.x W @X>.) ;.'.{.}. X X XXXXXXX",
"{.{.{.{.{.{.{.{.'.*.$._ _ ;.'.{.{.{.{.{.{.'.{.` # ; F G L P P P P L L L G - J {.XXXX{.{.OX$X9 D.P.F.* [.[./ *.'.'.'.'.{.'.'.{.{.",
"%.%.%.%.%.%.%.%.$..._ ~ ~ X.$.%.%.%.%.%.%.$.$...8 & D F F F G G F F F F F & 7 $.%.%.%.%.{.%XY b b v x +XL.~ ..#.$.%.%.%.%.%.%.%.",
"..X.X.#.#.O......._ ) ~ ~ _ ....#.#.#.#.#...#.#._ 4 # & & & & # # @ @ @ @ 8 R ..#.#.#.#.&.#X$XE 9 W @X#X+.~ _  .....O...X.#.#.#.",
"_ _ _ _ _ _ _ _ ) / ~ ~ ~ / ) _ _ _ _ _ ' ' ......w % a a a a a < u u < % I ' ' '  .' _ / @.#X#X#X#X#X@.~ / ) ) ) _ ' _ _ ' ' ' ",
"$.#.$.$.$.$.$.$.$.....) / ..#.$.$.$.$.$.%.%.%.%.%.` 0 a d f d f g k g > 4 #.%.%.%.$.$.$.O.O.%.&.&.&.$..._ ) ..#.#.$.%.$.$.%.%.%.",
"{.{.{.{.{.{.{.{.{.:.*.' _ :.'.{.{.'.{.{.{.{.{.{.{.{.1.q < d d g B N s O J {.{.XX{.{.'.'.'.'.'.{.{.{.,.%..._ *.'.'.{.{.{.{.{.{.{.",
"{.{.{.{.{.{.{.}.XX:.*.' _ :.'.{.{.{.{.{.{. X{.{.{.{.{.J < d p g N N u O J {.{. X}.{.{.{.{.{.{.{.{. X,.%..._ ;.'.{.{.{.{.{.{.{.{.",
"XXXXXXXXXXXXXXXXXX:.*.' _ :.'.{.}.{. XXXXXXXXXXXXXXX{.w < d d g N N u O J {.}. X}.}.}.{.{.{. X XXXXX,.%..._ :.{.{.XXXXXXXXXXXXXX",
"XXXXXXXXXXXXXXXXXX:.&.' _ ;.'.{.{.XXXXXXXXXXXXXXXXXX{.8 < d f B N N u   J {.}.}.}.}. X XXX XXXXXXXXX:.$..._ :.{.}.XXXXXXXXXXXXXX",
"XXXXXXXXXXXXXXXXXX:.&.' _ ;.'.{. XXXXXXXXXXXXXXXXXXX{.w < d f B N N u   J {.}.}.{.{. XXXXXXX X XXXXX:.$...' :.{. XXXXXXXXXXXXXXX",
"XXXXXXXXXXXXXXXXXX:.&.' _ ;.'. X XXXXXXXXXXXXXXXXX{.2.w , a s f g B <   8 *.'.{.{.{. XXXXXXXXXXXXXXX:.$...' :.{. XXXXXXXXXXXXXXX",
"XXXXXXXXXXXXXXXX X:.&.' _ ;.'. XXXXXXXXXXXXX{.'.'.-.+.8 : 4 4 4 w <.K : 0 K ` @.-.{.{.{. X X X}.}.}.:.$...' :.{. XXXXXXXXXXXXXXX",
"XXXXXXXXXXXXXX X{.:.&..._ ;.'.XXXXXXXXXX{.,.&.+.+.+.+.8 K ] ] ] o.3.3.] ^ ^ 3 O.+.%.%.%.,.{.}.}.}.}.:.$...' :.{. XXX X XXXXXXXXX",
"XXXXXXXXXXXXXX X{.:.&...' :.'.XXXXXXXX{.-.@.@.+.+.+.+.8 K <.] ] <.&X*X*XQ : 3 +.+.+.+.+.+.&.,.{.}.}.:.$...' :.{.{. X}. XXXXXXXXX",
"XXXXXXXXXXXXXXXXXX:.&...' :.'.XXXXXXXX2.+.+.+.+.@.@.+.3 : q w q K Q Q Q : 8 R +.+.+.+.+.+.O.-.}.}.}.:.$...' :.{.{.}.{.}.XXXXXXXX",
" X XXXXXXXXXXX}.}.:.*..._ :.'.XXXXXXXX'.-.@.+.+.+.@.+.I 8 8 J J J J 8 8 J ..@.@.+.+.+.+.+.&.,.}.}.}.:.$...' :.{.{.{.{.}.XXXXXX X",
" X XXXXXXXXXXX X X:.*.' _ :.'.XXXXXXXXXX{.,.:.:.:.%.+.+.+.+.@.@.@.@.+.+.+.+.+.+.@.@.@.;.,.{.}.}.}.}.2.%.#...:.{.{. X X XXXXXXX X",
"XXXXXXXXXXXXXX X{.:.*..._ :.'.XXXXXXXXXX{.{. X X X:.&.&.&.&.&.-.-.-.-.&.&.&.&.-.'.'.'.{. X}.XXXXXXXX2.%.#...:.{.{.}.}.XXXXXXXX X",
"XXXXXXXXXXXXXX}.}.:.*..._ :.'.XXXXXXXXXX{. X X X X X X X{. X X X X X X X X}.{.}. XXXXX}. X}.XXXXXXXX2.%.#...:.{.{.}.XXXXXXXXXX X",
"XXXXXXXXXXXXXXXXXX:.&..._ :.'.}. X X}.}. X X X X X XXX X X X X X XXXXXXXXXXXXXXX X XXXXXXXXXXXXXXXXX2.%.O...:.{.{.XXXXXXXXXXXXXX"
};
