/* XPM */
static char *_313da412d6e4aee92675b79372d4dd6[] = {
/* columns rows colors chars-per-pixel */
"64 64 187 2 ",
"   c #251C1D",
".  c #291D1D",
"X  c #2D211F",
"o  c #34231D",
"O  c #39241E",
"+  c #151621",
"@  c #161A26",
"#  c #1C1C24",
"$  c #171D2A",
"%  c #191E2C",
"&  c #241D22",
"*  c #2B1F21",
"=  c #1B212D",
"-  c #1C2433",
";  c #1D2837",
":  c #1E2A3A",
">  c #2D2222",
",  c #24232A",
"<  c #22262C",
"1  c #2A252B",
"2  c #322523",
"3  c #3C2721",
"4  c #362927",
"5  c #3C2A23",
"6  c #3F332F",
"7  c #232731",
"8  c #252B34",
"9  c #2B2E34",
"0  c #212D3D",
"q  c #302F33",
"w  c #293036",
"e  c #273039",
"r  c #2C343B",
"t  c #323136",
"y  c #3D3333",
"u  c #32353B",
"i  c #35383D",
"p  c #47291D",
"a  c #512E1D",
"s  c #53301E",
"d  c #59341E",
"f  c #70371A",
"g  c #753D1C",
"h  c #432D24",
"j  c #482F25",
"k  c #453025",
"l  c #4D3325",
"z  c #4C352B",
"x  c #523626",
"c  c #553827",
"v  c #583827",
"b  c #5C3C29",
"n  c #463936",
"m  c #4D3A33",
"M  c #553C34",
"N  c #763E20",
"B  c #5E4234",
"V  c #5A453D",
"C  c #63422B",
"Z  c #7A4524",
"A  c #66493D",
"S  c #724F3F",
"D  c #1F2F41",
"F  c #212E42",
"G  c #233245",
"H  c #2C3742",
"J  c #25364A",
"K  c #26394D",
"L  c #283B4E",
"P  c #343C44",
"I  c #3C3C41",
"U  c #333E49",
"Y  c #273B51",
"T  c #293E53",
"R  c #3A4146",
"E  c #3A464D",
"W  c #3B494E",
"Q  c #2A4156",
"!  c #2A4159",
"~  c #3B4751",
"^  c #3D4B52",
"/  c #46464A",
"(  c #40484E",
")  c #4B4B4C",
"_  c #444E54",
"`  c #455157",
"'  c #465359",
"]  c #49565C",
"[  c #47585F",
"{  c #4B595E",
"}  c #535255",
"|  c #56565A",
" . c #5B5A5C",
".. c #674D42",
"X. c #6E5348",
"o. c #775648",
"O. c #475B61",
"+. c #4D5C62",
"@. c #505F65",
"#. c #5E5F62",
"$. c #615F63",
"%. c #4E6165",
"&. c #4E6569",
"*. c #4F686B",
"=. c #506166",
"-. c #526469",
";. c #546A6E",
":. c #586B6F",
">. c #566C71",
",. c #596E73",
"<. c #577174",
"1. c #5B7176",
"2. c #5D757A",
"3. c #5E797E",
"4. c #666669",
"5. c #60767B",
"6. c #61797E",
"7. c #747477",
"8. c #803F1B",
"9. c #87461E",
"0. c #92491E",
"q. c #9D4C1B",
"w. c #9D501F",
"e. c #A14D1B",
"r. c #A5521D",
"t. c #AC551D",
"y. c #B35A1E",
"u. c #B45A1D",
"i. c #BD601F",
"p. c #9C5120",
"a. c #99582B",
"s. c #A45421",
"d. c #A45926",
"f. c #AD5A22",
"g. c #B35C21",
"h. c #BA5E21",
"j. c #BC6224",
"k. c #B9662B",
"l. c #A76533",
"z. c #B16933",
"x. c #C2611F",
"c. c #C46524",
"v. c #C96723",
"b. c #C56926",
"n. c #CA6A25",
"m. c #C16728",
"M. c #C66A29",
"N. c #CB6D29",
"B. c #D16F2A",
"V. c #CF712B",
"C. c #D3732C",
"Z. c #D8752D",
"A. c #DC792F",
"S. c #D77630",
"D. c #DD7B30",
"F. c #E17D32",
"G. c #96674D",
"H. c #8A6754",
"J. c #996A52",
"K. c #967058",
"L. c #A26E53",
"P. c #A77559",
"I. c #B47858",
"U. c #8D6F61",
"Y. c #937160",
"T. c #E68234",
"R. c #E88436",
"E. c #E98636",
"W. c #EA8738",
"Q. c #BB8666",
"!. c #C68A66",
"~. c #CA916C",
"^. c #D59672",
"/. c #5F7C80",
"(. c #627B80",
"). c #637D82",
"_. c #647D82",
"`. c #7F7E80",
"'. c #658186",
"]. c #658286",
"[. c #658288",
"{. c #678388",
"}. c #67858B",
"|. c #688389",
" X c #68858A",
".X c #6A888C",
"XX c #818182",
/* pixels */
"{.{. X X X}. X X.X).1.=.] 1.'. X}.}.{.{.{.{.{.}.}.}.}.}.}.{.'.{.{.{.'.{.{.{.{.{.{.}.}.}.}.}.{.{.{.{.).;.-.{ >.{. X X}.}.}.}.}.}.",
").).).).).).).)._.3.,.=.] ,.6.).).(.(.(.6.6.6.6.6.6.6.6.6.3.3.3.6.6.6.6.6.6.6.6.6.6.6.6.6.6.3.3.6.6.2.=.+.] -.6.6.).6.6.(.6.6.(.",
"5.5.6.6.6.3.2.2.2.1.>.+.] >.2.2.2.2.2.2.1.1.1.1.1.1.1.1.1.,.,.1.1.1.1.1.1.1.1.1.1.1.1.1.1.1.1.1.1.1.,.+.{ ] =.1.1.2.2.2.2.2.2.2.",
"+.+.+.=.%.+.%.%.=.+.{ ] ] +.=.@.+.+.+.+.+.+.+.{ { { { +.+.+.+.+.+.+.+.+.+.+.{ { +.+.+.+.+.+.+.+.+.+.{ ] ] ' { +.+.+.+.+.+.+.+.+.",
"+.+.@.=.=.=.=.=.=.+.] ] ' { @.@.@.@.+.+.+.+.{ ] ] { +._ t t t t t t t t ( +.{ { { +.+.+.+.+.+.+.+.+.{ ' ' ' ] { { { +.+.+.+.+.+.",
",.,.2.5.5.5.5.5.5.,.;.+.' -.,.2.2.2.2.2.1.1.,.,.,.( P n l.z.z.z.z.z.z.l.n P W ,.,.,.1.1.1.1.1.1.1.,.>.+.] ] =.1.1.1.2.1.2.2.2.2.",
"5.6.(._._._._._._.5.,.+.' ;.2.(._._.).(.(.(.6.2.[ n Z a.T.W.W.W.W.E.E.T.a.Z z +.2.3.3.6.6.5.6.6.6.6.2.=.+.] =.6.6.6.(.(.(.(.(.(.",
"{.{.{.}. X X X X.X).,.@.] ,.(.{. X X|.{.{.{.).` z a.E.E.E.E.E.E.E.E.E.T.T.D.p.h [ /.'.'.{.|.|.|.|.|.).;.=.] ;.'.|.|. X}.{.{.{.}.",
"{.{.{.}. X X X X X(.1.+.' ,.).{.{. X|.|.|.|.+.v k.T.T.T.E.E.E.E.E.E.E.T.T.T.D.d.l %.'.{.{.{.|.|.{.{.).;.=.{ ;.'.|. X X{.{.}.}.}.",
"}.}.}.}.}.}.}.{.|.(.1.+.' ,.).{.{.{.}. X X&.B j.F.T.T.T.T.E.E.E.E.E.E.T.T.T.T.D.d.m >.}.{.{.{.{.{.{.).;.=.{ >.{.{. X X{.{.}.}.}.",
"}.}.}. X X}.}.{.|.(.,.=.] ,.).{.{.{.{. X%.m s.A.T.T.T.T.T.E.E.E.E.E.E.T.T.T.T.T.S.p.V ,.}.{.{.{.{.{.).;.-.{ >.{.{. X{.{. X X X X",
"}.}. X X X X}.{.|.(.,.=.{ ,.).'.{.{.{.'._ g v.F.T.A.T.T.E.E.E.E.T.E.E.T.T.F.S.E.F.v.Z R ).{.{.{.{.{.).;.-.{ >.{.{.{.'.{. X X X X",
"}.}. X X X X}.{.{.(.1.=.+.1.).'.{.{.).` l e.v.Z.A.S.T.S.T.T.T.T.T.T.T.T.A.F.S.D.C.c.s.x ` ).{.'.'.{.).;.-.{ ;.{.{. X{. X X X X X",
"}.}.}. X X X X{.{.(.1.=.{ 1.).{.{.}.-.5 8.e.h.v.n.Z.D.N.N.N.D.T.T.A.M.N.N.S.C.n.v.h.r.9.k +.}.'.'.{.).;.-.{ ;.'.'. X X X X X X X",
"}.}.}.}. X X{.{.{.6.,.=.] 1.).'.{. X+.a j.t.q.t.u.i.n.n.n.b.C.Z.Z.V.c.b.n.v.h.h.h.r.f.k.d [ }.{.{.{.).;.-.{ ;.'.'. X X X X X X X",
"}.}.}.}.}.}.}.'.{.6.,.=.] ,.).{.{. X+.s j.h.h.j.t.r.h.j.h.g.g.g.g.f.g.h.h.y.r.y.j.j.j.M.d [ }.{.{.'.).;.-.{ ;.'.'. X X X X X X X",
"}.}.}.}.}. X}.{.}.6.,.%.] ,.).{. X X+.s r.t.n.c.h.N.m.t.h.g.f.r.r.f.g.g.y.M.M.u.c.b.t.f.d [ }.{.{.'.).;.=.{ ;.'.'. X X X X X X X",
"'.'.}.}.}.}.}.{.{.6.,.+.] ,.).|. X X%.x e.y.v.u.y.Z.N.h.D.D.D.j.m.F.D.Z.h.C.Z.y.y.x.t.r.s +. X{.{.'.).;.=.{ ;.'.'. X X X X X X X",
"'.'.'.}.}. X}.{.{.6.,.+.' ,.).{. X X).) f u.n.u.t.n.j.y.V.C.C.y.j.C.C.M.t.j.b.t.y.x.y.g ) 3. X'.{.{.).-.%.{ ;.'.'. X X X X X X X",
"{.'.}.}.}.}.{.{.{.6.,.+.' ,.).|. X X.X+.. g r.r.t.b.h.g.N.V.C.g.j.C.C.M.t.j.c.e.q.e.N > [  X}.{.{.{.).-.%.{ ;.'.'. X X X X X X X",
" X X X}.}.}.{.{.'.6.,.+.' ,.).{. X X X_ , 4 O s 9.w.q.t.N.B.B.g.j.C.C.M.r.r.p.9.p 3 4 1 E  X}.}.{.{.).-.%.{ ;.'.'. X X X X X X X",
" X X X X X}.{.{.'.6.,.+.' ,.).{. X X X^ o.X.& > O o a 0.s.s.f.s.s.f.f.s.9.p o O X & ..o.U  X}.}.{.{.).-.%.{ ;.'.{. X X X X X X X",
" X X}.}. X X{.{.{.6.,.+.' ,.).{. X X X~ Y.H.O k 5 o . o O 3 3 3 3 3 3 O o   X 3 h X o.G.U |.}.}.{.{.).;.=.{ ;.'.{. X X X X X X X",
" X X}.}.}. X{.{.|.6.,.+.' ,.).{.}. X X^ U.H.3 l x k 3 h j j j j j j h h 3 h l x l 2 o.H.U |.}.}.{.{.).;.=.] ;.'.'. X X X X X X X",
"{.'.}.}. X|.'.'.{.6.,.+.' ,.).{. X|. X3.} G.B 3 x x l k v v v b b b v x h l x x 5 B G.) 1.}.{.{.{.{.).;.=.{ ;.'.'. X X X X X X X",
"'.'.}.}.}.}.'.'.{.6.,.@.] 1.).|. X|. X.X+.X.A h l x x x x l x x c v l x l x x l h S X.[ .X}.{.{.{.{.).;.=.] ;.'.'. X X X X X X X",
"'.{.{.}.}.{.'.'.'.6.,.=.{ 1.).{. X X}.}.|.^ S B 3 h 2 2 *   * > > > * > > > h 5 M X.E {.{.{.{.{.{.'.).;.=.{ ;.'.'. X X X X X X X",
"}.}.}.}.}.{.{.'.'.3.,.=.{ 1.).{.}.}.}.{.|.~ > 2 & 7 J G G G G G G G G G G G < & 1 1 ~ {.{.{.{.{.}.}.).;.-.{ ;.'.'. X X X X X X X",
"}.{.{.{.}.}.}.'.'.3.,.+.] 1.).}.}.}.{.{.1.e : G J L ! Q T T T T T T T T Q Q K J J F 0 >.'.'.{.{.}.}.).;.=.{ ;.'.'. X X X X X X X",
"}.}.{.}.}.}.}.{.'.3.>.+.' 1.).}.}.}.{._.U % J T Q Q Q Q T T T T T T T T Q Q Q T T J $ 8 <.'.{.}.}.}.'.;.=.{ ;.'.'. X X X X X X X",
"}.}.}.}.}.}.}.}.{.3.>.+.' 1.).}.}.}.{.` = % G L T T Q Q Q T T T T T T Q Q Q T T K G % + w 3.}.}.}.}.'.;.=.{ ;.'.'. X X X X X X}.",
" X X X X X X}.}.|.6.,.+.' 1.).}. X X XU ; - ; J T T T K Y Q Q T T T T K K T Q Y J ; @ ; 7 3.}.}.}.}.'.;.%.] ;.).'. X X X X}.}.}.",
"{.'. X X X X X}.}.6.,.+.' 1.). X X X[ H K : - 0 J K T K J Y Y Y Y Y K J K T Y J G = = J 0 E 2.}.}.}.).-.+.' -.).'.}. X X X}.}.}.",
"{.'. X X X X X}.}.6.,.+.' 1.). X X XP G Q K - - 0 G J T K J J J J J J K T J G G - % G Y G $ O.}.'.{.).;.=.' -.).'.}.}. X X}.}.}.",
"}. X X X X X X}.}.6.,.+.` ,.). X.X XP G T T F % - F G J K T T Q Q Q T K G G D - - : K T T : [ }.'.'.6.-.+.' -.'.'.}.}.}.}.}. X X",
" X X X X X X X}.}.3.>.+.` >.).|.|.3.H G T J G : = ; G G G J J K K J J G F : - % 0 J T Q Q 0 ^ 3.'.'./.-.%.' -.'.'.}.}.}.}.}. X X",
"}. X X X X X X X}.3.>.+.` >.(.{.(.r J T T J $ : : % - : F G G G G G G F : % = 0 : : T Q Q L - ^ '.'.).-.%.] -.6.'.}.}.}. X X X X",
" X X X X X X X}.}.6.>.+.` >.(.{.3.7 L Q T J @ ; G : $ $ F G G G G G G F % $ 0 G - - Y Q T T - E '.'.).-.=.' -.3.).'.}.}. X X X X",
" X X X X X X X}.}.6.>.+.` >.(.{.2.< J Q Q J $ : K J : % - - - - - - - - - 0 K K - = J T T L = ^ '.'.).-.+.' -.3.).'.'.}.}. X X X",
" X X X X X}.{.{. X6.,.+.` >.(.{.2.= 0 L K G % : Y T K G : ; ; ; ; ; ; 0 J K Q K - % G K K J % ^ {.{._.;.%.' -.6.'.'.{.}. X X X X",
"{. X|.|.{.{.{.{.|.6.,.+.' >.3.'.2.= : G G G = : T Q T Q Y K J J J J K T Q Q Q K - $ F F F G - `  X}._.;.%.' -.).'.{.{.{.{.{.|.|.",
",.,.,.,.,.>.,.,.,.;.+.] ` +.=.>.%.= : F G G = 0 T Q T Q Q Q Q Q Q Q Q Q Q Q Q T ; % F F F G - E 1.,.;.+.] ` { -.;.>.>.,.,.,.,.,.",
"=.=.=.=.=.=.=.=.=.+.] ' _ ' +.%.] % - F G G = 0 T Q T Q Q Q Q Q Q Q Q Q Q Q Q T : % F F F : % R -.=.=.] ' ` ] { +.%.=.=.=.=.=.=.",
"] ] ] ] ] ] ] ] ] ' _ _ _ ' ] ] _ # , ; : : % 0 T T T T Q Q T Q Q Q Q Q Q Q Q K : @ % $ @ # & U +.+.] ' ` ` ' ' ] ] +.+.{ { +.+.",
"+.+.+.+.+.+.+.+.+.] ' ` _ { +.+.' y K.6 y 4 # 0 G J T Q Q Q Q Q Q Q Q Q Q T J G ; & 4 y 6 A A U -.=.@.{ ] ' ] +.+.+.=.%.+.+.=.=.",
").).).).).).).).).1.;.+.' >.6.'.1.y Q.~.~.I.z - 0 F J L Y T T T T T L K L K G G - M I.^.^.!.V E '.'._.;.=.] =.3.6.).).).).).).).",
"'.'.'.'.'.'.'.'.'.3.>.+.` ,.6.'.).( V P.P.J.A # % - ; ; ; ; ; ; ; ; - - - - - = + m J.J.L.A 9 %.'.}.'.;.=.] -.).'.'.'.'.'.'.'.'.",
" X X X X X|. X|.|.6.>.+.` >.6.'. X_.E i u t t #   > > > > > > > > > > > > > X   , R P P I P -.{.'.{._.;.=.] ;.'.'. X X X X X X X",
" X X X X X X X|.|.6.>.+.` >.6.'.}. X{.'.).).(.r h c x x l l l l l l x x x l l 5 w ).'.'.|. X X}.{.{.).;.=.] ;.'.'. X X X X X X X",
" X X X X X X X|. X3.>.+.' >.6.'.}. X}.}.}.{.'.r j c x x l h X X 2 2 l x l l x h 9 ).{. X X X X X}.{.).;.=.] ;.'.'. X X X X X X X",
" X X X X X X X X}.3.>.+.' ,.6.'.}.}.{.{.}.}.'.u l C c x l 5 7 ` ' 8 5 l l v b l 9 ).}. X}. X X X}.{.).;.=.] ;.'.'. X X X X X X X",
" X X X X X X X|.}.3.>.+.] ,.6.'.'.'.'.{.}. X}.u l C C v x 3 U  X Xi 3 l v C C l 9 ).}.}.}. X}.}. X X).;.=.] ;.'.'. X X X X X X X",
" X X X X X X X|.{.3.>.+.] ,.6.'.{.'.{.'.}. X}.u l C C b x h U }.'.r 3 l b C C l 8 /.{.}.}.}.}.}. X X_.;.=.{ ;.'.{. X X X X X X X",
" X X X X X X X X}.3.,.=.{ ,.).{.{.{.{.{.}.}.'.u l C C b x h U '.'.r 5 l b C C l w ).{.}.}.{.}.}. X X_.;.=.{ ;.'.{.}.{.}. X X X X",
" X X X X X X X X|.6.,.@.] 1.).{. X}.}. X X X'.u 2 5 3 3 4 > U ).3.r . 4 5 h k 4 w /.'.'.'.'.}.}. X X).;.=.{ ;.'.{.{.'.{. X X X X",
"}.}. X X X X X X{.3.>.+.' ,.).{. X{.{.}.'.'.,.9 9 t 9 t t 1 r *.*.w 1 t t q t 9 9 <.'.'.'.'.}.}. X X_.;.=.{ ;.'.{.}.'.{. X X X}.",
"}.}. X X X X X|.{.3.>.+.' ,.).|. X X{.).<.;.P #.4.| | | } i w *.*.w I | | | | / 8 %.;.;.<.).}. X X X_.;.-.+.;.'.'.}.}.}. X X X}.",
"}. X X X X X X{.'.3.>.+.] ,.).|. X{.2.;.*.*.r 7.7.$.`.`.| u w *.&.w I  .XX`.#./ 7 +.*.*.*.;.2.'. X X_.;.-.+.;.'.'.}.}. X X X X}.",
" X X X X X X X|.{.3.>.+.] ,.).|. X).*.*.*.*.r t u t I I 1 # 8 *.*.w , 9 I I 9 , = +.*.*.*.*.*.). X X'.:.-.+.;.'.'.{. X X X X X}.",
" X X X X X X X|.|.6.>.+.] 1.).'.}.).>.*.*.*.[ W W ^ W E E E ` *.*.' ^ ^ ^ ^ ^ W ^ %.*.*.*.*.<.'. X X_.:.-.+.;.'.'.|. X|. X X X X",
" X X X X X X X|.|.6.,.+.] 1.).'.'.{.'.2.>.*.;.;.;.;.;.;.-.-.*.*.-.;.;.;.;.;.;.;.*.&.&.*.;.3.'.{. X X_.>.-.+.>.'.'. X X X X X X X",
" X X X X X X X|.|.6.>.+.] 1.).'.'.{.}.}.'.3.3.3.<.*.*.-.-.;.;.;.;.;.;.;.;.;.-.*.>.2.2.3.'.}.}.}. X X_.;.=.+.;.'.'. X X X X}.}.}.",
" X X X X X X|.|.|.6.>.+.] 1.).'.{.}.}.}. X X X X'.).).).).).)./.)././././.(.6.3.'.}.}.}.{.{.{.}. X}.).;.=.{ ;.).'. X X X X X}.}.",
"}.}.}.}. X X X|.|.6.>.+.] 1.).'.{.}. X X X X X X X X X X X}.}.}.}.}.}.}.}. X X X}.}.}.}.}.{.{.{.}.{.).;.=.{ ;.'.'. X X X X X X X"
};
