/* XPM */
static char *_a112d74ad6d4fc6ade1e942d957ea2e[] = {
/* columns rows colors chars-per-pixel */
"64 64 147 2 ",
"   c #1F2233",
".  c #222635",
"X  c #242639",
"o  c #272A3A",
"O  c #292C3D",
"+  c #2B303F",
"@  c #2B2F40",
"#  c #2D3242",
"$  c #303645",
"%  c #323947",
"&  c #313748",
"*  c #343B4A",
"=  c #3A3E4B",
"-  c #36404E",
";  c #39414F",
":  c #364251",
">  c #3B4552",
",  c #364856",
"<  c #3E4956",
"1  c #364B58",
"2  c #3E4D5A",
"3  c #3F525D",
"4  c #3D5160",
"5  c #3F5A63",
"6  c #464048",
"7  c #504348",
"8  c #5F4E4F",
"9  c #414A56",
"0  c #4B4D54",
"q  c #424D5A",
"w  c #4A4E58",
"e  c #544E53",
"r  c #44515E",
"t  c #4A525C",
"y  c #555055",
"u  c #585357",
"i  c #53545A",
"p  c #5C5659",
"a  c #645150",
"s  c #62595A",
"d  c #64645D",
"f  c #686258",
"g  c #756853",
"h  c #746E5E",
"j  c #7C745F",
"k  c #445562",
"l  c #495662",
"z  c #435B65",
"x  c #465865",
"c  c #465966",
"v  c #4B5A67",
"b  c #425E68",
"n  c #465D69",
"m  c #4A5B69",
"M  c #4B5D6A",
"N  c #4C5E6B",
"B  c #4B5D6C",
"V  c #4D5F6D",
"C  c #505F66",
"Z  c #46616B",
"A  c #4B626E",
"S  c #4C626D",
"D  c #4E686F",
"F  c #566066",
"G  c #5E6461",
"H  c #52636C",
"J  c #59666A",
"K  c #4E6370",
"L  c #4E6572",
"P  c #4F6573",
"I  c #4E6A73",
"U  c #4F6F78",
"Y  c #516672",
"T  c #506673",
"R  c #516775",
"E  c #516B75",
"W  c #526A77",
"Q  c #5A6C73",
"!  c #536B78",
"~  c #526E79",
"^  c #546E79",
"/  c #4F727A",
"(  c #537077",
")  c #53707A",
"_  c #54707B",
"`  c #55737B",
"'  c #54727D",
"]  c #57727E",
"[  c #57757F",
"{  c #59757D",
"}  c #56787F",
"|  c #5A797F",
" . c #666660",
".. c #616967",
"X. c #646F6D",
"o. c #69716C",
"O. c #7C7662",
"+. c #7E7B66",
"@. c #717469",
"#. c #7D7D6C",
"$. c #677370",
"%. c #897D5F",
"&. c #858168",
"*. c #968966",
"=. c #998F6D",
"-. c #4F7B82",
";. c #577580",
":. c #587681",
">. c #597681",
",. c #5A7681",
"<. c #577981",
"1. c #5B7B83",
"2. c #5B7C86",
"3. c #5D7F89",
"4. c #5E7F88",
"5. c #607F86",
"6. c #5E8086",
"7. c #508589",
"8. c #5E8289",
"9. c #5D818B",
"0. c #618187",
"q. c #60838D",
"w. c #62848C",
"e. c #60848E",
"r. c #668A8E",
"t. c #688A8F",
"y. c #728E8C",
"u. c #73918E",
"i. c #7B948C",
"p. c #638790",
"a. c #668C92",
"s. c #688D92",
"d. c #659295",
"f. c #6A9195",
"g. c #629598",
"h. c #6B9599",
"j. c #669C9C",
"k. c #6D989B",
"l. c #7B9891",
"z. c #749D9A",
"x. c #4DA2A3",
"c. c #65A1A1",
"v. c #65B3AF",
"b. c #879A89",
"n. c #9DA485",
"m. c #AAAB81",
"M. c #A1A989",
/* pixels */
"o o o o O o o o o o o o o o o o o o o o o o o o o o o o o o o o o o o o o o o O o o o o o o o o o o o o o o o o o o o O o o o o ",
"& * * * - ; ; : : : < < < 2 q q r k k k k k k k x x x x x x x x x x x x x x x x x x x x x k k k r k q q 2 2 < : : ; ; = * * * # ",
": b 2 9 q q q r r l M B B V K R ! ' :.:.:.:.' ' :.:.:.:.:.:.:.:.:.:.:.:.:.:.:.:.:.:.:.:.:.[ ' W W W K V V V m k r r r q < r k = ",
": < 2 q x x x m K P W P W ' 2.9.9.3.9.e.9.9.q.e.q.e.e.q.3.3.q.e.e.e.q.e.e.e.e.e.9.9.9.9.9.9.3.9.9.3.:.W R R P P N v v x q 2 < < ",
"> > 9 q 2 q r k x x x k x A ) ' ' ~ ' [ [ [ [ ;.;.[ ;.' ' _ [ ;.;.;.;.;.;.;.;.;.;.;.;.;.[ ' ~ ' ' ' ~ A x x x k k r r q q < > 9 ",
"q q l :   o o o o o o o o o o X # # # # # & & & & & & # * * * * * * % & # & & & & & # # # # # O . o o o o o o o o o o . r r q r ",
"r q M , . # & # # # # # - - - o = : > 2 > > < < < 9 < z q q q q q q q q z < 9 9 < < < > > - : % o : : - % & & & & & O . x l q k ",
"l t M < X # & * * * * * 2 2 < o ; > 2 k < < 9 q r r r I v l m M x r r k I k r r r q < < 3 > > * o 2 3 2 : = * * * % + o x x q k ",
"l r N 2 X # & * * * * * - 2 2 o : < < < 9 q r r l m M m N S S S A M M m x v v l k r q b < < < * O r < > < > ; = * % # o x v r k ",
"l r T 2 X # * * * * = > < r r o > < 9 q r r l v M K P K P P P S S K K S P P S M m x r k q 9 < = O x 9 < < < < - * * # o x N r k ",
"l v W r X # * * * : < < < r k O < q q r k v S P T P P P P P P P K P P P P P P P P S M v r q q ; O v 9 < < < - * * * # o M T x l ",
"x N W k o # * * - < < < < r k O 9 r q k M K P W #.Q P P P I I I P P P P K P P P P P S v r q r > + v q 9 9 < = , 1 * # o S T m v ",
"m N ^ x O * * > < < < < 2 k k + q r r M B P I W $.W I I W W W W ~ W I / A W I P P S N M Z 2 r > # M q 2 9 < : = : = & O P R m m ",
"N S [ x O * > < < < 9 > n n x O < v S W ) ' | :.<.<.2.2.2.2.2.2.6.2.2.[ } 1.<.<.[ ^ W ~ I M k ; # S n k < q 9 > < > * + W _ V M ",
"N T :.x O : < < 9 q q < < x A o # : < , < 2 3 k k k k k k k k k k k k k k k k r r 2 2 , : < > # + W r < 9 q q q 9 9 ; + _ ;.P M ",
"S W :.x O > 9 q q q q r r M A O q k q & k v M M M M A A S S S S S S M S S S A M M M m 2 % k v < + S k r q q q q q 9 - + ' :.W M ",
"T W :.M + > q q q t t k P I Z # v I n < P ' ~ _ _ _ | [ <.[ | | 1.1.[ ) _ [ _ _ ( I I M < A I r # I P A r q r r q 9 = + ' :.W N ",
"T ~ e.A + > q q q h %.t Z I A # k I n q I ' ~ _ [ [ 3.{ ) 3.r.a.r.r.3._ { 3.| _ _ I U A q A A q # ~ P n k r q q q q - + { :.W S ",
"T ^ p.A O > q q t O.*.F v W P # m S S k <.W _ [ | :.e.0.{ w.a.d.r.r.r.5.r.r.e.1.1.{ _ W r D A r # ' S v v r q w q q ; + :.3.W S ",
"T _ a.A O > q q r C J S P ~ P # M W S x 9.:.1.1.3.0.r.r.r.r.r.r.r.r.r.r.a.a.r.r.r.0.3._ r W W z # [ I P S v t a e q ; # :.0.^ S ",
"T { a.A O > q q k N S P P ~ S # S _ W v r.w.r.r.r.r.r.r.r.r.r.r.r.r.r.r.d.d.r.r.r.r.3._ q W _ x # [ W P S S l y w q ; # :.e.' S ",
"W :.a.A O > q q v S F T P ~ S # W [ W m f.r.a.r.r.r.r.r.a.d.r.r.r.r.r.r.r.r.r.r.a.r.0.3.r _ _ v # [ W P P H p t q q ; # :.q.{ S ",
"^ :.a.S O > q r N F g G A W P $ W [ W m f.a.r.r.r.r.r.r.r.a.r.r.r.r.r.r.r.r.a.a.a.a.s.r.k _ [ m # [ P A P H s i q q ; # 1.q.{ H ",
"_ 1.a.P # > w i N H J v I I I & W | ^ N f.a.r.r.r.r.r.r.r.r.r.r.r.r.r.r.r.r.g.a.t.y.s.a.v { | M & [ I A B P S l q q ; # 1.q.:.T ",
"' 1.a.S + > q v S S S S x ~ I & W 1.1.S k.a.a.t.r.r.r.r.r.r.r.r.r.r.r.r.r.r.r.r.b.m.u.a.M w.1.M & { S n P P S N r q ; + :.0.:.T ",
"' :.a.P + > q v S P T W W [ I & W e.5.S k.a.a.t.r.r.r.r.r.r.r.r.r.r.r.r.r.g.r.r.i.n.f.r.M a.e.S % <.W W W P S S k q : # :.0.1.T ",
"_ :.a.P O > r N S P I -.' :.I & _ a.6.S k.a.a.t.r.r.r.r.r.r.r.r.r.r.r.r.r.r.r.r.r.t.s.r.m r.a.T & :.) W W W P S v q : # :.q.1.T ",
"_ :.a.P # > r S P P U x.7.<.I & _ r.e.W k.a.a.t.r.r.r.r.r.r.r.r.r.r.r.r.r.r.r.r.r.r.a.r.I a.w.S # :._ W W W P S M r : + :.e.1.T ",
"_ :.a.S + > t N P T W I I [ W & ^ w.r.W k.s.r.t.r.r.r.r.r.r.r.r.r.r.r.r.r.r.r.r.r.r.a.a.W s.3.A # :.( P W W P P S q : + ' r.3.T ",
"_ :.a.S O > l S T T W M I [ W & ( r.a.W h.j.g.r.r.r.r.r.r.r.r.r.r.r.r.r.r.r.r.r.r.r.a.a.W f.6.S # [ I I S W W P N r > # ^ 0.1.T ",
"_ :.e.A + < v S W T T A S [ I $ { s.a.W k.c.j.r.r.r.r.r.r.r.r.r.r.r.r.r.r.r.r.r.r.r.a.a.W h.r.S & <.I A P W W T V l > # ^ 3.1.T ",
"_ 1.e.Z + < l S W W W W W [ I & { s.a.^ k.a.t.r.r.r.r.r.r.r.r.r.r.r.r.r.r.r.r.r.r.r.a.d.W h.t.A & :.) I W W W T N l > # { 0.1.T ",
"_ 1.r.n + < v S P W W W D _ W $ { s.s.^ h.a.t.r.r.r.r.r.r.r.r.r.r.r.r.r.r.r.r.r.r.r.a.a.W h.r.A & 1.) I W W T X.J r > # :.q.1.T ",
"^ :.a.S + < v N P T W A I _ W $ _ s.s.W f.a.a.r.r.r.r.r.r.r.r.r.r.r.r.r.r.r.r.r.r.r.a.a.W h.r.S & <.' / I T J =.+.t : # :.q.1.T ",
"^ :.a.S # > l N P T W A A [ W $ _ s.a.W f.s.r.t.t.a.d.r.r.r.r.r.r.r.r.r.r.r.r.r.r.r.a.a.W d.6.S & <.I P W W J @...r : # :.q.:.T ",
"^ :.a.S # < r N P W W W W | I $ _ r.a.W f.s.s.t.r.r.d.r.r.r.r.r.r.r.r.r.r.r.r.r.r.r.a.a.W a.1.S & :._ W W W W H v r : # :.q.:.T ",
"^ :.a.S # < r N S W W W W :.I & ^ 0.r.W f.s.s.t.r.r.r.r.r.r.r.r.r.r.r.r.r.r.a.r.d.a.a.e.W a.1.A & :.[ ) <.W T S v r > # 1.0.:.T ",
"^ :.a.P # < r v S P W W W [ I & ^ 1.0.W f.s.t.t.r.r.r.r.r.r.r.r.r.r.r.r.r.r.d.r.d.d.s.a.P r.1.A & :._ W W W T S l r : # 1.0.:.T ",
"W :.a.P # < q k S P W W P ) I & ^ 1.1.S f.s.t.t.t.r.r.r.r.r.r.r.r.r.r.r.r.r.r.r.r.t.s.r.A 2.:.S & ;.W I W W H N r q : # :.0.1.T ",
"T :.a.P # > q r v S I M I ) I & ^ | { v r.s.t.t.t.r.r.r.r.r.r.r.r.r.r.r.r.r.r.r.a.t.s.0.M 1.:.A & [ I A S T S N r q : # :.0.:.T ",
"T ' a.P # > q q l V P m A ) P & ^ | _ k 0.t.t.t.t.t.t.r.r.r.r.r.r.r.r.r.r.r.r.r.a.a.a.1.M 3.:.M & ;.I n V S S l q q ; # :.0.{ S ",
"T ~ p.A + > q q k m H #.X.W P $ ( 1.^ r 5.r.t.t.t.t.t.r.r.r.r.r.r.a.r.r.a.a.a.a.a.s.t.{ z 1.| M # :.W G d S N r q q ; + :.0._ N ",
"P W q.A + > q q q v H &.o.W S & W | W r 5.r.r.r.r.t.t.r.r.r.t.r.a.s.a.a.v.j.s.s.z.f.e._ r [ | m & [ W  .f S v q q q ; + :.0._ M ",
"P W 3.M + > q q q k M H S W S $ D _ I r 3.r.a.s.i.s.r.r.a.a.a.a.a.s.a.a.j.g.s.s.f.r.e._ q ( _ v & ' T S S S r q q q ; # :.9.^ M ",
"S W :.n + > q q q q v B S W S $ S ( S r | 0.a.l.M.t.a.a.a.a.a.s.f.s.a.a.s.f.f.a.t.0.3._ r W I k & _ S S S v r q q q ; # { 3.~ M ",
"S I 3.A O > 9 9 w 9 r k A W S $ M I S q W [ 3.r.u.a.a.e.2.w.a.d.f.s.r.3.e.d.a.a.r.[ ) S q D A r & _ S n v r q q d i > + _ :.~ N ",
"N P 2.n O > 9 e 8 q Z q A I A & m I A q S ) [ 1.3.e.a.:.( :.r.r.a.a.9.<.| r.t.e.3.) I m 2 I D r # W I Z r q q t j d > + ~ [ ~ N ",
"m N ' n O > 9 w 0 9 q r q M M & M A v < W W ^ _ _ { { _ W _ { { 1.3.1.W _ { 1.| { _ I M > A S r # W v r r q q q t t ; + I ' ~ N ",
"v N T k O = > < < 9 q q 9 v M o - < : # < q 2 q q 2 q r k r r r r k k k r r r r r r q - # < < % # T r q q q > < q q ; + P ' ~ V ",
"v m W k O * ; < < < 5 < z M m o * q k k k M A A A S I W I I W ~ W W W W W W W W I I m r r r < & # S x r < q < q q > * + P ' W M ",
"x v P 2 O * * - > < < > r z z + 9 k M I H ^ ~ ^ _ _ [ _ 1.[ 3.6.| 1.1.9.) :.:.[ ' ' ^ W I n v < + M k q < q q q > = * O P _ S v ",
"l l T 2 o & * * = < < < < r k O 9 q r A S S P P I W W M I W ~ _ W W W I S W W W W W T S A r Z 2 + n q 9 q r 2 ; * * % o P ^ V v ",
"l t H 2 X # * = 0 < < < 9 t r O > 9 q r M N S P I I W P P W W T T W W P W W W W R P S N l r 9 ; + m q 9 r q > * * * # o S T N x ",
"l q H 2 o # * 0 f < > > 9 u r O > 9 9 q r l v S S P P P P P P P S T W W W W T P S N v l q w 9 ; + x 9 9 < : = * * * # o S T v l ",
"l q N 2 X # & * ; = = % = q 2 O > > > < q r r l v N V M S S P S S S S P S S S N v l r q < < < = O k 9 > = * * * * & # o N V l k ",
"l q N 2 . # & * * 6 7 % < 2 2 O > > < k < 9 9 q r l k I M M N N N N N M I x l r r q q < z < > = O r r 2 * * * * % & # o v v r k ",
"k q M < . # & % * * = % - > > o ; > > 2 < < 9 9 9 q q z r r r r r r r r z q q q q 9 9 < 2 > > * O < > - * * % & & & + o x v r k ",
"q 9 v ,   X o O O O O O O + o . # & & $ * * * * * * * % * = = * = = * * * * * * * * * % % & & # . + O o O O O O O O X . x v q q ",
"< > q 2 , k z z x x x n n x x z n n M A A A A A A A M M A A A A M A A A A A A B A A A A A B A n x n n n x k k k k k > - k r > < ",
": 4 q q m T T H T W ^ ^ ^ ^ ^ :.3.3.p.a.a.a.a.a.a.a.p.p.a.a.a.a.r.a.a.a.a.a.p.p.a.a.a.a.a.a.a.9.' ' :.^ W T T T H H N v r q 2 > ",
": z 2 q q q r t t l v N V S K T W ' ' ' ' :.:.:.:.:.:.:.:.:.:.:.:.:.:.:.:.:.:.:.:.:.:.:.{ ' ^ W T K N v x l l l l t r r q 2 r : ",
"* = = > < < < < < < < 9 9 q r k k k k k k v M M M M M M M M M M M M M M M M M M M M m k k k k k r q 9 9 9 9 9 9 9 < < < : = * * ",
"O # # # # @ # # # # # # # # # # # # # # # # # @ @ # # # # @ @ @ @ @ @ @ @ @ # # @ @ @ # # # # # # # # # # # # # # # # # # # # o ",
"X X X X X X X X X X X X X X X X X X X X X X X X X X X X X X X X X X X X X X X X X X X X X X X X X X X X X X X X X X X X X X X X "
};
